<?xml version="1.0" encoding="UTF-8"?>
<map version="1.10" tiledversion="1.12.1" orientation="orthogonal" renderorder="right-down" width="80" height="45" tilewidth="16" tileheight="16" infinite="0" nextlayerid="9" nextobjectid="13">
 <tileset firstgid="1" source="../Tilesets/Animation_Banner_1.tsx"/>
 <tileset firstgid="705" source="../Tilesets/Animation_Banner_3.tsx"/>
 <tileset firstgid="2113" source="../Tilesets/Animation_Campfire.tsx"/>
 <tileset firstgid="2145" source="../Tilesets/Animation_CandleHolder_Gold_4.tsx"/>
 <tileset firstgid="2157" source="../Tilesets/Animation_CandleHolder_Gold_Short_4.tsx"/>
 <tileset firstgid="2169" source="../Tilesets/Animation_CandleHolder_Steel_4.tsx"/>
 <tileset firstgid="2181" source="../Tilesets/Animation_CandleHolder_Steel_Short_4.tsx"/>
 <tileset firstgid="2193" source="../Tilesets/Animation_Flowers.tsx"/>
 <tileset firstgid="3153" source="../Tilesets/Animation_Fountain_1.tsx"/>
 <tileset firstgid="3441" source="../Tilesets/Animation_MagicCrystal.tsx"/>
 <tileset firstgid="5301" source="../Tilesets/Animation_MarketStand_1.tsx"/>
 <tileset firstgid="6709" source="../Tilesets/Animation_MarketStand_2.tsx"/>
 <tileset firstgid="8821" source="../Tilesets/Animation_Rock_Brown.tsx"/>
 <tileset firstgid="9241" source="../Tilesets/Animation_Rock_Brown_EmeraldGrass.tsx"/>
 <tileset firstgid="9661" source="../Tilesets/Animation_Rock_Gray.tsx"/>
 <tileset firstgid="10081" source="../Tilesets/Animation_Rock_Gray_EmeraldGrass.tsx"/>
 <tileset firstgid="10501" source="../Tilesets/Animation_Torch_1.tsx"/>
 <tileset firstgid="10629" source="../Tilesets/Animation_Waterfall.tsx"/>
 <tileset firstgid="10785" source="../Tilesets/Atlas_Buildings_Bridges.tsx"/>
 <tileset firstgid="12075" source="../Tilesets/Atlas_Buildings_Hay.tsx"/>
 <tileset firstgid="29235" source="../Tilesets/Atlas_Buildings_Wood_Blue.tsx"/>
 <tileset firstgid="46395" source="../Tilesets/Atlas_Buildings_Wood_Green.tsx"/>
 <tileset firstgid="63555" source="../Tilesets/Atlas_Buildings_Wood_Indigo.tsx"/>
 <tileset firstgid="80715" source="../Tilesets/Atlas_Buildings_Wood_LightGreen.tsx"/>
 <tileset firstgid="97875" source="../Tilesets/Atlas_Buildings_Wood_Orange.tsx"/>
 <tileset firstgid="115035" source="../Tilesets/Atlas_Buildings_Wood_Pink.tsx"/>
 <tileset firstgid="132195" source="../Tilesets/Atlas_Buildings_Wood_Purple.tsx"/>
 <tileset firstgid="149355" source="../Tilesets/Atlas_Buildings_Wood_Red.tsx"/>
 <tileset firstgid="166515" source="../Tilesets/Atlas_Buildings_Wood_Violet.tsx"/>
 <tileset firstgid="183675" source="../Tilesets/Atlas_Buildings_Wood_Yellow.tsx"/>
 <tileset firstgid="200835" source="../Tilesets/Atlas_MapBackgrounds.tsx"/>
 <tileset firstgid="200873" source="../Tilesets/Atlas_Props.tsx"/>
 <tileset firstgid="221509" source="../Tilesets/Atlas_Rocks.tsx"/>
 <tileset firstgid="224533" source="../Tilesets/Atlas_Trees_Bushes.tsx"/>
 <tileset firstgid="231413" source="../Tilesets/Objects_Buildings.tsx"/>
 <tileset firstgid="232401" source="../Tilesets/Objects_CityWalls.tsx"/>
 <tileset firstgid="232469" source="../Tilesets/Objects_Props.tsx"/>
 <tileset firstgid="233811" source="../Tilesets/Objects_Rocks.tsx"/>
 <tileset firstgid="233950" source="../Tilesets/Objects_Shadows.tsx"/>
 <tileset firstgid="234052" source="../Tilesets/Objects_Trees.tsx"/>
 <tileset firstgid="234205" source="../Tilesets/Tileset_CityWalls.tsx"/>
 <tileset firstgid="234447" source="../Tilesets/Tileset_FarmField.tsx"/>
 <tileset firstgid="234501" source="../Tilesets/Tileset_Fence_1.tsx"/>
 <tileset firstgid="234537" source="../Tilesets/Tileset_Fence_2.tsx"/>
 <tileset firstgid="234573" source="../Tilesets/Tileset_Ground.tsx"/>
 <tileset firstgid="239133" source="../Tilesets/Tileset_Road.tsx"/>
 <tileset firstgid="240141" source="../Tilesets/Tileset_RockSlope_1_Brown.tsx"/>
 <tileset firstgid="244237" source="../Tilesets/Tileset_RockSlope_1_Gray.tsx"/>
 <tileset firstgid="248333" source="../Tilesets/Tileset_RockSlope_2_Brown.tsx"/>
 <tileset firstgid="252429" source="../Tilesets/Tileset_RockSlope_2_Gray.tsx"/>
 <tileset firstgid="256525" source="../Tilesets/Tileset_Sand.tsx"/>
 <tileset firstgid="259405" source="../Tilesets/Tileset_Shadow.tsx"/>
 <tileset firstgid="259453" source="../Tilesets/Tileset_TallGrass.tsx"/>
 <tileset firstgid="259753" source="../Tilesets/Tileset_Wall_1.tsx"/>
 <tileset firstgid="259789" source="../Tilesets/Tileset_Water.tsx"/>
 <tileset firstgid="260101" source="../Animation_Banner_1_Desert.tsx"/>
 <tileset firstgid="260775" source="../Animation_Banner_3_Desert.tsx"/>
 <tileset firstgid="262091" source="../Animation_Campfire.tsx"/>
 <tileset firstgid="262109" source="../Animation_CandleHolder_Gold_4.tsx"/>
 <tileset firstgid="262110" source="../Animation_CandleHolder_Gold_Short_4.tsx"/>
 <tileset firstgid="262115" source="../Animation_CandleHolder_Steel_4.tsx"/>
 <tileset firstgid="262116" source="../Animation_CandleHolder_Steel_Short_4.tsx"/>
 <tileset firstgid="262121" source="../Animation_Flowers.tsx"/>
 <tileset firstgid="263037" source="../Animation_MagicCrystal.tsx"/>
 <tileset firstgid="264870" source="../Animation_MarketStand_1_Desert.tsx"/>
 <tileset firstgid="266218" source="../Animation_MarketStand_2_Desert.tsx"/>
 <tileset firstgid="268240" source="../Animation_Rock_Gray.tsx"/>
 <tileset firstgid="268622" source="../Animation_Rock_Gray_Desert.tsx"/>
 <tileset firstgid="269004" source="../Animation_Torch_1.tsx"/>
 <tileset firstgid="269118" source="../Animation_Waterfall.tsx"/>
 <tileset firstgid="269265" source="../Atlas_Buildings_Bridges.tsx"/>
 <tileset firstgid="270409" source="../Atlas_Buildings_Desert_Blue.tsx"/>
 <tileset firstgid="270409" source="../Atlas_Buildings_Desert_Green.tsx"/>
 <tileset firstgid="270409" source="../Atlas_Buildings_Desert_Indigo.tsx"/>
 <tileset firstgid="270409" source="../Atlas_Buildings_Desert_LightGreen.tsx"/>
 <tileset firstgid="270409" source="../Atlas_Buildings_Desert_Orange.tsx"/>
 <tileset firstgid="270409" source="../Atlas_Buildings_Desert_Pink.tsx"/>
 <tileset firstgid="270409" source="../Atlas_Buildings_Desert_Purple.tsx"/>
 <tileset firstgid="270409" source="../Atlas_Buildings_Desert_Red.tsx"/>
 <tileset firstgid="270409" source="../Atlas_Buildings_Desert_Violet.tsx"/>
 <tileset firstgid="270409" source="../Atlas_Buildings_Desert_Yellow.tsx"/>
 <tileset firstgid="270409" source="../Atlas_Props_Desert.tsx"/>
 <tileset firstgid="270409" source="../Atlas_Rocks_Desert.tsx"/>
 <tileset firstgid="272094" source="../Atlas_Trees_Bushes_Desert.tsx"/>
 <tileset firstgid="275516" source="../Objects_Buildings_Desert.tsx"/>
 <tileset firstgid="276792" source="../Objects_Props_Desert.tsx"/>
 <tileset firstgid="278387" source="../Objects_Rocks_Desert.tsx"/>
 <tileset firstgid="278523" source="../Objects_Shadows.tsx"/>
 <tileset firstgid="278625" source="../Objects_Trees_Desert.tsx"/>
 <tileset firstgid="278776" source="../Tileset_Fence_1.tsx"/>
 <tileset firstgid="278807" source="../Tileset_Ground.tsx"/>
 <tileset firstgid="281933" source="../Tileset_Road.tsx"/>
 <tileset firstgid="281933" source="../Tileset_RockSlope_1_Gray.tsx"/>
 <tileset firstgid="284562" source="../Tileset_RockSlope_2_Gray.tsx"/>
 <tileset firstgid="287191" source="../Tileset_RockSlope_2_Gray_Sand.tsx"/>
 <tileset firstgid="288607" source="../Tileset_Sand.tsx"/>
 <tileset firstgid="291349" source="../Tileset_Shadow.tsx"/>
 <tileset firstgid="291349" source="../Tileset_TallGrass.tsx"/>
 <tileset firstgid="291529" source="../Tileset_Wall_1.tsx"/>
 <tileset firstgid="291560" source="../Tileset_Water.tsx"/>
 <layer id="1" name="Ground" width="80" height="45">
  <data encoding="csv">
235631,235632,235630,235632,235681,235632,235679,235631,235629,235680,235631,235679,235681,235681,235632,235681,235632,235633,235680,235632,235682,235630,235634,235678,235678,235632,235679,235634,235681,235681,235634,235677,235629,235681,235682,235634,235630,235677,235634,235679,235630,235631,235629,235682,235632,235631,235633,235632,235679,235678,235633,235680,235630,0,0,0,0,0,0,0,0,0,0,0,0,0,0,0,0,0,0,0,0,0,0,0,0,0,0,0,
235633,235679,235631,235677,235630,235633,235682,235677,235629,235629,235680,235634,235677,235679,235678,235630,235633,235631,235632,235677,235630,235630,235681,235630,235633,235630,235680,235629,235634,235678,235682,235633,235631,235633,235630,235633,235633,235634,235680,235632,235678,235631,235634,235682,235629,235634,235630,235677,235634,235633,235632,235680,235677,0,0,0,0,0,0,0,0,0,0,0,0,0,0,0,0,0,0,0,0,0,0,0,0,0,0,0,
235631,235681,235679,235633,235679,235634,235680,235633,235629,235682,235681,235633,235681,235678,235631,235678,235678,235633,235633,235632,235679,235634,235681,235682,235679,235682,235630,235633,235633,235679,235631,235681,235681,235631,235682,235679,235679,235630,235677,235630,235679,235682,235679,235681,235678,235631,235680,235678,235634,235629,235630,235682,235679,0,0,0,0,0,0,0,0,0,0,0,0,0,0,0,0,0,0,0,0,0,0,0,0,0,0,0,
235678,235681,235632,235630,235631,235680,235681,235681,235630,235681,235632,235682,235678,235634,235632,235630,235677,235681,235677,235680,235634,235631,235678,235629,235631,235633,235629,235682,235677,235680,235681,235634,235634,235677,235682,235679,235629,235678,235634,235633,235632,235633,235682,235680,235633,235633,235632,235632,235630,235682,235680,235633,235677,0,0,0,0,0,0,0,0,0,0,0,0,0,0,0,0,0,0,0,0,0,0,0,0,0,0,235295,
235632,235634,235632,235677,235677,235677,235633,235678,235634,235680,235633,235679,235682,235629,235634,235630,235634,235680,235630,235677,235678,235630,235632,235633,235681,235631,235630,235681,235678,235630,235630,235677,235677,235679,235634,235632,235634,235682,235680,235680,235634,235630,235677,235680,235681,235633,235680,235629,235630,235631,235631,235629,235633,0,0,0,0,0,0,0,0,0,0,0,0,0,0,0,0,0,0,0,0,235295,235295,235295,235295,235295,235295,235295,
235630,235681,235633,235631,235629,235681,235680,235681,235679,235630,235634,235633,235678,235678,235632,235633,235681,235680,235631,235680,235631,235631,235681,235633,235632,235679,235681,235681,235630,235634,235679,235678,235631,235629,235681,235677,235678,235679,235679,235629,235679,235630,235629,235681,235680,235679,235678,235632,235632,235679,235633,235632,235681,235633,0,0,0,0,0,0,0,0,0,0,0,0,0,0,0,235295,235295,235295,235295,235295,235295,235295,235295,235295,235295,235295,
235677,235679,235633,235678,235682,235633,235632,235682,235630,235631,235679,235679,235634,235678,235631,235681,235629,235634,235630,235633,235682,235633,235682,235679,235630,235682,235629,235677,235681,235630,235681,235678,235630,235634,235680,235630,235682,235682,235677,235631,235629,235630,235681,235630,235681,235629,235630,235629,235633,235680,235677,235682,235631,235682,235678,0,0,0,0,0,0,0,0,0,0,0,0,0,0,235295,235295,235295,235295,235295,235295,235295,235295,235295,235295,235295,
235631,235681,235681,235682,235634,235631,235629,235629,235681,235632,235681,235633,235629,235633,235632,235629,235678,235629,235681,235681,235681,235633,235677,235634,235681,235681,235682,235682,235632,235633,235679,235680,235631,235630,235680,235629,235632,235634,235682,235631,235682,235630,235678,235682,235679,235633,235679,235633,235681,235634,235630,235681,235678,235681,235630,235295,0,0,0,0,0,0,0,0,0,235295,235295,235295,235295,235295,235295,235295,235295,235295,235295,235295,235295,235295,235295,235295,
235681,235629,235634,235634,235634,235634,235631,235680,235679,235681,235629,235630,235680,235679,235677,235630,235633,235680,235633,235677,235629,235633,235634,235680,235678,235630,235631,235679,235634,235682,235679,235678,235681,235629,235633,235630,235633,235679,235682,235677,235679,235629,235629,235681,235632,235634,235679,235679,235630,235629,235678,235680,235633,235633,235632,235679,235629,235680,235295,0,0,0,0,235295,235295,235295,235295,235295,235295,235295,235295,235295,235295,235295,235295,235295,235295,235295,235295,235295,
235681,235680,235632,235678,235677,235633,235634,235631,235634,235680,235678,235677,235632,235632,235632,235677,235633,235629,235633,235634,235679,235629,235630,235631,235677,235629,235677,235633,235677,235630,235630,235634,235679,235633,235679,235629,235679,235630,235677,235629,235678,235678,235678,235678,235679,235632,235633,235682,235633,235679,235681,235632,235682,235632,235679,235634,235678,235629,235295,235295,235295,235295,235295,235295,235295,235295,235295,235295,235295,235295,235295,235295,235295,235295,235295,235295,235295,235295,235629,235680,
235630,235630,235681,235633,235679,235679,235680,235632,235680,235677,235632,235678,235632,235631,235678,235629,235629,235629,235633,235633,235682,235633,235634,235634,235632,235630,235631,235680,235682,235633,235679,235677,235634,235680,235681,235631,235631,235632,235678,235681,235682,235634,235677,235633,235677,235629,235632,235677,235677,235682,235633,235630,235680,235678,235682,235677,235632,235677,235633,235679,235681,235295,235295,235632,235629,235678,235681,235682,235679,235678,235295,235679,235678,235631,235629,235295,235295,235678,235682,235678,
235629,235631,235681,235681,235678,235678,235634,235634,235633,235632,235678,235677,235678,235632,235632,235629,235630,235679,235632,235632,235633,235629,235677,235633,235629,235679,235679,235631,235632,235632,235681,235682,235678,235681,235682,235634,235633,235634,235680,235679,235679,235682,235680,235677,235630,235629,235682,235634,235679,235682,235630,235630,235633,235681,235677,235678,235633,235632,235677,235630,235631,235678,235681,235678,235682,235677,235629,235681,235680,235634,235681,235634,235631,235632,235634,235682,235632,235632,235633,235678,
235677,235678,235679,235678,235629,235632,235631,235678,235681,235681,235630,235633,235631,235632,235681,235629,235630,235682,235629,235682,235632,235681,235631,235679,235631,235680,235677,235632,235678,235629,235677,235677,235629,235678,235679,235629,235678,235631,235678,235629,235631,235630,235629,235631,235682,235630,235680,235682,235631,235682,235631,235679,235631,235634,235678,235629,235633,235632,235629,235680,235679,235630,235632,235631,235678,235634,235630,235679,235680,235632,235631,235633,235682,235633,235631,235677,235631,235682,235632,235679,
235680,235677,235679,235678,235678,235634,235634,235633,235631,235679,235634,235634,235630,235680,235631,235631,235677,235682,235634,235681,235681,235678,235629,235629,235630,235630,235682,235677,235677,235679,235677,235680,235677,235677,235629,235679,235633,235634,235632,235677,235681,235678,235681,235680,235677,235629,235680,235681,235682,235630,235680,235630,235630,235679,235630,235678,235677,235632,235629,235634,235682,235679,235678,235678,235633,235679,235681,235632,235678,235680,235679,235633,235631,235681,235631,235631,235630,235630,235682,235630,
235631,235634,235677,235631,235630,235679,235630,235678,235678,235629,235633,235632,235630,235634,235633,235677,235681,235679,235632,235677,235682,235631,235679,235630,235633,235677,235678,235629,235634,235680,235681,235677,235680,235629,235631,235632,235677,235680,235678,235634,235633,235682,235677,235630,235634,235633,235682,235634,235634,235680,235678,235679,235631,235632,235634,235634,235677,235678,235630,235677,235682,235678,235632,235682,235679,235633,235634,235679,235679,235681,235634,235677,235682,235679,235678,235632,235631,235677,235631,235678,
235679,235632,235632,235629,235631,235631,235680,235681,235681,235678,235629,235682,235680,235631,235677,235677,235678,235682,235679,235631,235630,235632,235631,235680,235681,235677,235633,235632,235633,235630,235631,235634,235677,235680,235631,235680,235678,235632,235678,235629,235630,235632,235680,235629,235681,235629,235630,235681,235682,235632,235677,235678,235631,235680,235631,235632,235678,235634,235682,235679,235630,235633,235682,235634,235631,235634,235630,235634,235630,235629,235679,235677,235632,235677,235682,235680,235679,235680,235630,235677,
235631,235629,235631,235630,235631,235682,235682,235681,235629,235634,235630,235630,235629,235678,235678,235633,235682,235633,235678,235681,235631,235680,235629,235629,235678,235633,235677,235678,235630,235630,235629,235629,235634,235680,235631,235629,235629,235680,235681,235634,235633,235677,235632,235632,235678,235681,235629,235681,235679,235682,235633,235678,235681,235629,235677,235632,235631,235682,235678,235682,235632,235633,235632,235630,235632,235630,235681,235677,235682,235682,235630,235631,235680,235632,235679,235633,235629,235632,235633,235632,
235631,235630,235677,235631,235679,235680,235631,235681,235678,235631,235679,235681,235680,235631,235677,235681,235634,235680,235629,235680,235632,235677,235632,235680,235681,235632,235677,235630,235678,235682,235632,235634,235630,235681,235681,235634,235629,235680,235630,235678,235682,235634,235677,235680,235681,235680,235630,235677,235633,235634,235682,235678,235630,235634,235680,235634,235630,235678,235682,235630,235634,235634,235630,235633,235633,235679,235634,235629,235679,235633,235631,235680,235633,235631,235679,235681,235682,235680,235678,235629,
235630,235633,235633,235682,235630,235679,235681,235679,235679,235630,235634,235633,235682,235679,235634,235629,235678,235679,235629,235681,235633,235679,235680,235632,235678,235633,235630,235677,235679,235678,235634,235679,235681,235680,235681,235678,235681,235679,235630,235633,235631,235681,235679,235633,235681,235634,235680,235679,235682,235681,235630,235681,235682,235679,235629,235633,235633,235680,235632,235678,235633,235681,235631,235634,235679,235633,235678,235632,235680,235632,235631,235629,235679,235634,235677,235678,235681,235634,235629,235629,
235633,235682,235634,235633,235630,235632,235680,235632,235679,235682,235682,235633,235678,235633,235680,235631,235632,235682,235634,235682,235677,235631,235681,235680,235682,235632,235678,235634,235632,235682,235633,235634,235679,235629,235680,235632,235682,235680,235631,235679,235629,235631,235630,235634,235631,235682,235629,235679,235678,235678,235681,235677,235681,235634,235680,235680,235681,235678,235681,235633,235634,235680,235677,235682,235633,235679,235631,235682,235631,235631,235679,235680,235633,235680,235630,235679,235681,235631,235679,235629,
235630,235632,235679,235681,235678,235631,235633,235632,235680,235680,235634,235682,235631,235679,235678,235678,235631,235632,235678,235681,235680,235677,235679,235678,235681,235634,235682,235680,235632,235680,235630,235679,235679,235629,235682,235629,235630,235630,235678,235677,235633,235679,235682,235631,235630,235632,235634,235631,235629,235629,235634,235633,235633,235679,235679,235680,235632,235630,235679,235632,235682,235680,235633,235679,235680,235681,235678,235631,235632,235677,235682,235629,235682,235679,235681,235682,235634,235634,235681,235633,
235629,235632,235679,235682,235632,235681,235678,235679,235634,235630,235680,235634,235682,235632,235677,235632,235677,235677,235633,235631,235679,235633,235633,235682,235632,235633,235633,235633,235679,235680,235632,235629,235679,235682,235634,235679,235634,235631,235680,235681,235632,235677,235630,235681,235630,235633,235633,235629,235630,235682,235679,235629,235632,235682,235629,235681,235682,235630,235681,235681,235631,235629,235679,235629,235682,235682,235629,235630,235679,235633,235629,235680,235630,235679,235632,235679,235682,235682,235629,235629,
235677,235629,235679,235629,235677,235630,235678,235629,235631,235631,235678,235633,235678,235681,235633,235678,235632,235632,235631,235680,235678,235629,235630,235682,235634,235632,235629,235633,235679,235632,235681,235630,235630,235678,235681,235678,235633,235634,235680,235633,235631,235678,235677,235632,235632,235677,235634,235630,235682,235632,235632,235630,235681,235632,235631,235630,235680,235677,235681,235681,235677,235630,235631,235631,235677,235630,235677,235631,235681,235630,235677,235680,235630,235682,235630,235677,235677,235681,235681,235682,
235633,235632,235630,235682,235630,235678,235630,235681,235682,235680,235630,235629,235633,235631,235680,235681,235633,235629,235632,235677,235633,235679,235631,235678,235678,235678,235631,235633,235677,235629,235630,235631,235632,235678,235633,235634,235631,235634,235677,235681,235679,235632,235677,235632,235681,235680,235678,235678,235633,235681,235631,235680,235632,235682,235633,235632,235633,235678,235677,235634,235680,235680,235680,235680,235634,235633,235630,235679,235681,235631,235631,235631,235681,235679,235678,235629,235680,235629,235681,235680,
235678,235629,235632,235682,235629,235678,235678,235677,235682,235682,235629,235680,235677,235629,235679,235680,235680,235680,235678,235632,235681,235681,235680,235631,235679,235630,235679,235681,235629,235632,235682,235630,235679,235682,235634,235680,235629,235680,235631,235678,235680,235679,235633,235680,235678,235682,235678,235682,235677,235632,235682,235681,235633,235631,235679,235680,235633,235632,235681,235631,235634,235679,235680,235679,235678,235682,235678,235630,235633,235677,235632,235679,235680,235634,235631,235634,235680,235631,235680,235634,
235633,235681,235680,235634,235631,235679,235680,235681,235632,235630,235634,235634,235631,235681,235630,235632,235678,235681,235679,235634,235677,235632,235682,235634,235680,235679,235682,235633,235679,235633,235631,235679,235682,235633,235631,235681,235631,235682,235679,235679,235680,235633,235678,235633,235630,235634,235679,235678,235629,235681,235680,235632,235634,235679,235632,235630,235632,235680,235681,235634,235633,235631,235681,235629,235682,235631,235633,235680,235681,235680,235677,235679,235630,235631,235629,235680,235632,235678,235679,235677,
235632,235630,235682,235631,235679,235630,235633,235682,235629,235631,235682,235634,235682,235681,235678,235678,235632,235629,235679,235633,235680,235632,235678,235634,235678,235631,235678,235633,235634,235681,235679,235679,235681,235634,235634,235680,235632,235632,235678,235629,235679,235679,235679,235680,235677,235634,235630,235632,235634,235679,235680,235679,235681,235677,235678,235678,235678,235629,235633,235679,235630,235678,235679,235678,235634,235633,235632,235634,235633,235629,235682,235634,235681,235679,235678,235678,235680,235677,235629,235680,
235679,235677,235629,235678,235680,235679,235679,235680,235631,235630,235630,235632,235631,235631,235681,235678,235681,235630,235633,235630,235681,235629,235631,235682,235629,235632,235682,235682,235634,235631,235678,235630,235679,235632,235682,235634,235677,235633,235679,235629,235633,235632,235678,235678,235680,235629,235677,235678,235633,235631,235631,235682,235633,235633,235629,235631,235634,235682,235630,235632,235634,235681,235679,235682,235677,235677,235634,235678,235679,235630,235629,235633,235633,235678,235682,235630,235682,235634,235634,235629,
235633,235682,235678,235677,235678,235633,235682,235631,235678,235630,235631,235633,235634,235680,235679,235677,235678,235629,235682,235632,235629,235629,235633,235631,235633,235678,235677,235678,235682,235634,235630,235629,235632,235680,235634,235678,235677,235678,235629,235631,235629,235631,235677,235682,235677,235681,235630,235678,235680,235680,235677,235681,235630,235680,235632,235634,235682,235634,235634,235631,235679,235634,235633,235630,235634,235632,235633,235631,235678,235680,235632,235677,235680,235630,235632,235681,235682,235633,235680,235633,
235679,235678,235629,235630,235631,235677,235679,235632,235633,235631,235634,235681,235681,235677,235677,235682,235677,235634,235633,235634,235679,235677,235634,235680,235681,235677,235632,235629,235629,235633,235677,235630,235679,235681,235629,235681,235678,235633,235681,235678,235631,235678,235634,235677,235632,235632,235632,235630,235680,235631,235679,235679,235678,235682,235633,235632,235679,235682,235681,235634,235680,235677,235679,235681,235680,235634,235680,235682,235679,235631,235679,235682,235630,235681,235631,235630,235629,235679,235634,235681,
235634,235682,235629,235682,235633,235682,235680,235630,235634,235631,235633,235679,235682,235634,235632,235680,235631,235679,235631,235630,235680,235634,235679,235632,235632,235634,235634,235680,235633,235634,235634,235631,235633,235629,235630,235632,235630,235631,235632,235677,235679,235629,235630,235634,235678,235679,235682,235680,235634,235679,235681,235634,235681,235678,235633,235634,235629,235681,235678,235681,235682,235677,235681,235680,235632,235634,235630,235634,235677,235680,235631,235679,235679,235631,235631,235682,235629,235629,235634,235677,
235630,235680,235632,235629,235682,235629,235629,235633,235633,235680,235677,235678,235630,235682,235631,235630,235682,235630,235681,235680,235634,235630,235682,235629,235681,235632,235680,235680,235678,235680,235630,235634,235632,235677,235680,235633,235678,235633,235632,235630,235631,235630,235680,235677,235632,235682,235679,235680,235681,235678,235631,235682,235679,235682,235634,235634,235681,235679,235632,235630,235633,235634,235682,235679,235677,235678,235634,235634,235629,235681,235629,235678,235634,235633,235681,235633,235677,235630,235629,235629,
235678,235632,235633,235682,235629,235678,235677,235630,235632,235631,235680,235680,235678,235681,235630,235634,235679,235633,235678,235681,235681,235630,235677,235629,235680,235631,235634,235681,235629,235677,235631,235677,235634,235631,235677,235629,235631,235630,235680,235681,235630,235634,235633,235632,235677,235630,235632,235633,235682,235682,235682,235630,235631,235630,235682,235632,235678,235681,235680,235630,235632,235680,235678,235634,235677,235677,235681,235630,235677,235633,235631,235680,235630,235629,235631,235633,235631,235633,235631,235677,
235633,235631,235632,235633,235679,235679,235678,235679,235678,235678,235632,235678,235632,235634,235680,235629,235630,235633,235681,235679,235632,235633,235632,235631,235681,235682,235678,235629,235682,235634,235679,235633,235630,235632,235682,235681,235677,235632,235634,235631,235634,235630,235680,235634,235678,235677,235631,235677,235682,235634,235631,235682,235633,235631,235631,235630,235629,235634,235677,235630,235677,235680,235682,235677,235630,235629,235681,235682,235680,235681,235678,235678,235634,235631,235677,235632,235677,235629,235632,235631,
235678,235681,235679,235632,235634,235681,235680,235633,235629,235630,235679,235682,235679,235630,235682,235630,235631,235680,235629,235632,235678,235682,235681,235682,235679,235679,235682,235678,235629,235633,235634,235680,235678,235680,235632,235631,235633,235633,235629,235681,235682,235634,235679,235633,235679,235631,235629,235629,235634,235682,235633,235629,235634,235630,235678,235678,235634,235633,235678,235631,235681,235680,235678,235629,235631,235630,235633,235682,235681,235678,235678,235629,235632,235629,235632,235679,235630,235677,235630,235630,
235678,235634,235680,235680,235629,235677,235632,235634,235632,235630,235679,235677,235679,235634,235630,235682,235680,235634,235682,235681,235678,235632,235677,235677,235679,235680,235678,235634,235632,235634,235682,235682,235679,235633,235633,235630,235677,235631,235633,235632,235679,235629,235631,235677,235629,235630,235682,235631,235682,235682,235678,235682,235631,235680,235629,235631,235682,235633,235631,235682,235634,235629,235630,235678,235630,235633,235631,235629,235630,235680,235678,235629,235677,235677,235629,235632,235677,235629,235634,235633,
235629,235630,235631,235682,235634,235634,235633,235631,235681,235632,235682,235680,235634,235681,235682,235678,235629,235632,235679,235679,235631,235631,235634,235677,235678,235632,235681,235632,235679,235632,235679,235634,235679,235629,235680,235682,235681,235682,235634,235630,235629,235629,235681,235681,235679,235630,235631,235680,235679,235677,235677,235682,235631,235680,235680,235680,235680,235629,235633,235633,235634,235633,235633,235630,235681,235630,235678,235629,235633,235630,235681,235633,235630,235630,235678,235679,235682,235630,235681,235633,
235677,235633,235681,235630,235681,235631,235681,235677,235682,235631,235632,235682,235632,235630,235679,235633,235678,235679,235680,235631,235680,235678,235634,235682,235678,235678,235633,235634,235680,235629,235633,235631,235680,235629,235634,235678,235634,235633,235679,235680,235632,235633,235632,235682,235680,235634,235681,235634,235633,235679,235629,235679,235679,235682,235634,235630,235677,235633,235634,235680,235678,235680,235679,235682,235682,235677,235629,235681,235634,235631,235632,235678,235679,235677,235630,235632,235679,235629,235682,235632,
235680,235633,235682,235680,235630,235634,235634,235632,235632,235682,235630,235682,235632,235682,235680,235680,235631,235681,235680,235634,235679,235679,235678,235682,235678,235632,235633,235678,235679,235678,235629,235629,235633,235631,235633,235633,235680,235681,235629,235631,235633,235678,235677,235681,235633,235681,235633,235680,235679,235634,235632,235631,235679,235678,235633,235678,235678,235678,235633,235634,235679,235677,235634,235678,235680,235680,235680,235631,235634,235680,235630,235680,235629,235677,235680,235629,235678,235630,235681,235677,
235678,235682,235631,235681,235634,235632,235630,235681,235679,235630,235680,235681,235680,235630,235632,235634,235631,235629,235634,235629,235679,235680,235630,235629,235629,235677,235678,235680,235679,235630,235677,235677,235679,235681,235677,235682,235678,235681,235678,235629,235631,235677,235634,235634,235677,235632,235632,235630,235629,235633,235679,235630,235679,235679,235631,235632,235678,235634,235682,235679,235680,235630,235633,235633,235634,235677,235678,235633,235629,235678,235631,235634,235633,235631,235632,235634,235679,235630,235630,235677,
235634,235632,235681,235682,235682,235680,235681,235634,235631,235682,235632,235629,235633,235631,235633,235631,235632,235632,235633,235631,235682,235678,235681,235677,235631,235633,235629,235680,235634,235681,235632,235634,235631,235678,235630,235633,235634,235630,235677,235681,235633,235681,235629,235680,235629,235679,235629,235634,235678,235681,235632,235629,235679,235677,235677,235634,235634,235678,235677,235629,235678,235634,235633,235633,235678,235682,235682,235631,235633,235631,235629,235678,235677,235680,235633,235678,235629,235678,235682,235630,
235677,235629,235679,235679,235677,235631,235681,235682,235680,235631,235677,235631,235630,235630,235680,235681,235677,235677,235631,235633,235631,235634,235678,235629,235632,235633,235682,235634,235634,235682,235681,235678,235677,235682,235680,235632,235681,235629,235629,235631,235630,235629,235630,235678,235630,235679,235631,235677,235630,235680,235679,235680,235681,235631,235632,235681,235678,235630,235633,235682,235678,235630,235679,235634,235679,235680,235679,235681,235680,235678,235630,235680,235682,235677,235681,235682,235629,235633,235632,235681,
235630,235677,235677,235680,235678,235677,235631,235678,235632,235633,235634,235679,235633,235631,235677,235679,235679,235632,235631,235633,235678,235681,235679,235629,235634,235630,235629,235679,235682,235680,235681,235629,235630,235681,235632,235677,235679,235680,235678,235630,235633,235681,235634,235678,235632,235631,235630,235634,235679,235629,235680,235677,235680,235680,235632,235629,235634,235680,235633,235681,235632,235678,235633,235680,235633,235634,235630,235629,235679,235631,235633,235633,235677,235679,235631,235680,235679,235634,235629,235682,
235680,235677,235679,235630,235681,235633,235629,235678,235630,235632,235677,235629,235631,235634,235678,235677,235680,235682,235679,235633,235634,235630,235682,235632,235679,235630,235679,235634,235634,235681,235679,235632,235679,235632,235633,235633,235633,235678,235678,235632,235632,235634,235682,235632,235632,235679,235633,235680,235633,235679,235634,235633,235629,235631,235631,235682,235630,235630,235677,235680,235677,235632,235631,235678,235677,235629,235634,235679,235681,235630,235680,235678,235679,235677,235682,235633,235631,235632,235630,235629,
235631,235680,235634,235634,235634,235629,235681,235681,235633,235679,235677,235677,235680,235632,235632,235631,235679,235678,235679,235629,235629,235631,235681,235629,235682,235631,235631,235677,235632,235677,235633,235678,235634,235633,235681,235632,235681,235682,235630,235679,235633,235678,235630,235633,235682,235677,235630,235634,235633,235632,235634,235633,235630,235632,235631,235680,235630,235677,235632,235678,235682,235681,235632,235634,235634,235632,235682,235682,235631,235630,235629,235630,235629,235678,235678,235634,235680,235633,235631,235677
</data>
 </layer>
 <layer id="5" name="2F" width="80" height="45">
  <data encoding="csv">
0,0,0,0,0,0,0,0,240142,240142,240142,240142,240142,240142,240142,240142,240142,240142,240142,240142,240142,240142,240142,240142,240142,240142,240142,240142,240142,240142,240142,240142,240142,0,0,0,0,0,0,0,0,0,0,0,0,0,0,0,0,0,0,0,0,240142,240142,240142,240142,240142,240142,240142,240142,240142,240142,240142,240142,240142,240142,240142,240142,240142,240142,240142,240142,240142,240142,240142,240142,240142,240142,240142,
0,0,0,0,0,0,0,0,240142,240142,240142,240142,240142,240142,240142,240142,240142,240142,240142,240142,240142,240142,240142,240142,240142,240142,240142,240142,240142,240142,240142,240142,240142,240142,0,0,0,0,0,0,0,0,0,0,0,0,0,0,0,0,0,0,0,240142,240142,240142,240142,240142,240142,240142,240142,240142,240142,240142,240142,240142,240142,240142,240142,240142,240142,240142,240142,240142,240142,240142,240142,240142,240142,240142,
0,0,0,0,0,0,0,0,0,240142,240142,240142,240142,240142,240142,240142,240142,240142,240142,240142,240142,240142,240142,240142,240142,240142,240142,240142,240142,240142,240142,240142,240142,240142,0,0,0,0,0,0,0,0,0,0,0,0,0,0,0,0,0,0,0,240142,240142,240142,240142,240142,240142,240142,240142,240142,240142,240142,240142,240142,240142,240142,240142,240142,240142,240142,240142,240142,240142,240142,240142,240142,240142,240142,
0,0,0,0,0,0,0,0,0,0,240142,240142,240142,240142,240142,240142,240142,240142,240142,240142,240142,240142,240142,240142,240142,240142,240142,240142,240142,240142,240142,240142,240142,240142,0,0,0,0,0,0,0,0,0,0,0,0,0,0,0,0,0,0,0,240142,240142,240142,240142,240142,240142,240142,240142,240142,240142,240142,240142,240142,240142,240142,240142,240142,240142,240142,240142,240142,240142,240142,240142,240142,240142,0,
0,0,0,0,0,0,0,0,0,0,0,0,0,0,0,240142,240142,240142,240142,240142,240142,240142,240142,240142,240142,240142,240142,240142,240142,240142,240142,0,0,0,0,0,0,0,0,0,0,0,0,0,0,0,0,0,0,0,0,0,0,240142,240142,240142,240142,240142,240142,240142,240142,240142,240142,240142,240142,240142,240142,240142,240142,240142,240142,240142,240142,0,0,0,0,0,0,0,
0,0,0,0,0,0,0,0,0,0,0,0,0,0,0,240142,240142,240142,240142,240142,240142,240142,240142,240142,240142,240142,240142,0,0,0,0,0,0,0,0,0,0,0,0,0,0,0,0,0,0,0,0,0,0,0,0,0,0,0,240142,240142,240142,240142,240142,240142,240142,240142,240142,240142,240142,240142,240142,240142,240142,0,0,0,0,0,0,0,0,0,0,0,
0,0,0,0,0,0,0,0,0,0,0,0,0,0,0,0,0,240142,240142,240142,240142,240142,240142,0,0,0,0,0,0,0,0,0,0,0,0,0,0,0,0,0,0,0,0,0,0,0,0,0,0,0,0,0,0,0,0,240142,240142,240142,240142,240142,240142,240142,240142,240142,240142,240142,240142,240142,240142,0,0,0,0,0,0,0,0,0,0,0,
0,0,0,0,0,0,0,0,0,0,0,0,0,0,0,0,0,0,0,0,0,0,0,0,0,0,0,0,0,0,0,0,0,0,0,0,0,0,0,0,0,0,0,0,0,0,0,0,0,0,0,0,0,0,0,0,240142,240142,240142,240142,240142,240142,240142,240142,240142,0,0,0,0,0,0,0,0,0,0,0,0,0,0,0,
0,0,0,0,0,0,0,0,0,0,0,0,0,0,0,0,0,0,0,0,0,0,0,0,0,0,0,0,0,0,0,0,0,0,0,0,0,0,0,0,0,0,0,0,0,0,0,0,0,0,0,0,0,0,0,0,0,0,0,240142,240142,240142,240142,0,0,0,0,0,0,0,0,0,0,0,0,0,0,0,0,0,
0,0,0,0,0,0,0,0,0,0,0,0,0,0,0,0,0,0,0,0,0,0,0,0,0,0,0,0,0,0,0,0,0,0,0,0,0,0,0,0,0,0,0,0,0,0,0,0,0,0,0,0,0,0,0,0,0,0,0,0,0,0,0,0,0,0,0,0,0,0,0,0,0,0,0,0,0,0,0,0,
0,0,0,0,0,0,0,0,0,0,0,0,0,0,0,0,0,0,0,0,0,0,0,0,0,0,0,0,0,0,0,0,0,0,0,0,0,0,0,0,0,0,0,0,0,0,0,0,0,0,0,0,0,0,0,0,0,0,0,0,0,0,0,0,0,0,0,0,0,0,0,0,0,0,0,0,0,0,0,0,
0,0,0,0,0,0,0,0,0,0,0,0,0,0,0,0,0,0,0,0,0,0,0,0,0,0,0,0,0,0,0,0,0,0,0,0,0,0,0,0,0,0,0,0,0,0,0,0,0,0,0,0,0,0,0,0,0,0,0,0,0,0,0,0,0,0,0,0,0,0,0,0,0,0,0,0,0,0,0,0,
0,0,0,0,0,0,0,0,0,0,0,0,0,0,0,0,0,0,0,0,0,0,0,0,0,0,0,0,0,0,0,0,0,0,0,0,0,0,0,0,0,0,0,0,0,0,0,0,0,0,0,0,0,0,0,0,0,0,0,0,0,0,0,0,0,0,0,0,0,0,0,0,0,0,0,0,0,0,0,0,
0,0,0,0,0,0,0,0,0,0,0,0,0,0,0,0,0,0,0,0,0,0,0,0,0,0,0,0,0,0,0,0,0,0,0,0,0,0,0,0,0,0,0,0,0,0,0,0,0,0,0,0,0,0,0,0,0,0,0,0,0,0,0,0,0,0,0,0,0,0,0,0,0,0,0,0,0,0,0,0,
0,0,0,0,0,0,0,0,0,0,0,0,0,0,0,0,0,0,0,0,0,0,0,0,0,0,0,0,0,0,0,0,0,0,0,0,0,0,0,0,0,0,0,0,0,0,0,0,0,0,0,0,0,0,0,0,0,0,0,0,0,0,0,0,0,0,0,0,0,0,0,0,0,0,0,0,0,0,0,0,
0,0,0,0,0,0,0,0,0,0,0,0,0,0,0,0,0,0,0,0,0,0,0,0,0,0,0,0,0,0,0,0,0,0,0,0,0,0,0,0,0,0,0,0,0,0,0,0,0,0,0,0,0,0,0,0,0,0,0,0,0,0,0,0,0,0,0,0,0,0,0,0,0,0,0,0,0,0,0,0,
0,0,0,0,0,0,0,0,0,0,0,0,0,0,0,0,0,0,0,0,0,0,0,0,0,0,0,0,0,0,0,0,0,0,0,0,0,0,0,0,0,0,0,0,0,0,0,0,0,0,0,0,0,0,0,0,0,0,0,0,0,0,0,0,0,0,0,0,0,0,0,0,0,0,0,0,0,0,0,0,
0,0,0,0,0,0,0,0,0,0,0,0,0,0,0,0,0,0,0,0,0,0,0,0,0,0,0,0,0,0,0,0,0,0,0,0,0,0,0,0,0,0,0,0,0,0,0,0,0,0,0,0,0,0,0,0,0,0,0,0,0,0,0,0,0,0,0,0,0,0,0,0,0,0,0,0,0,0,0,0,
0,0,0,0,0,0,0,0,0,0,0,0,0,0,0,0,0,0,0,0,0,0,0,0,0,0,0,0,0,0,0,0,0,0,0,0,0,0,0,0,0,0,0,0,0,0,0,0,0,0,0,0,0,0,0,0,0,0,0,0,0,0,0,0,0,0,0,0,0,0,0,0,0,0,0,0,0,0,0,0,
0,0,0,0,0,0,0,0,0,0,0,0,0,0,0,0,0,0,0,0,0,0,0,0,0,0,0,0,0,0,0,0,0,0,0,0,0,0,0,0,0,0,0,0,0,0,0,0,0,0,0,0,0,0,0,0,0,0,0,0,0,0,0,0,0,0,0,0,0,0,0,0,0,0,0,0,0,0,0,0,
0,0,0,0,0,0,0,0,0,0,0,0,0,0,0,0,0,0,0,0,0,0,0,0,0,0,0,0,0,0,0,0,0,0,0,0,0,0,0,0,0,0,0,0,0,0,0,0,0,0,0,0,0,0,0,0,0,0,0,0,0,0,0,0,0,0,0,0,0,0,0,0,0,0,0,0,0,0,0,0,
0,0,0,0,0,0,0,0,0,0,0,0,0,0,0,0,0,0,0,0,0,0,0,0,0,0,0,0,0,0,0,0,0,0,0,0,0,0,0,0,0,0,0,0,0,0,0,0,0,0,0,0,0,0,0,0,0,0,0,0,0,0,0,0,0,0,0,0,0,0,0,0,0,0,0,0,0,0,0,0,
0,0,0,0,0,0,0,0,0,0,0,0,0,0,0,0,0,0,0,0,0,0,0,0,0,0,0,0,0,0,0,0,0,0,0,0,0,0,0,0,0,0,0,0,0,0,0,0,0,0,0,0,0,0,0,0,0,0,0,0,0,0,0,0,0,0,0,0,0,0,0,0,0,0,0,0,0,0,0,0,
0,0,0,0,0,0,0,0,0,0,0,0,0,0,0,0,0,0,0,0,0,0,0,0,0,0,0,0,0,0,0,0,0,0,0,0,0,0,0,0,0,0,0,0,0,0,0,0,0,0,0,0,0,0,0,0,0,0,0,0,0,0,0,0,0,0,0,0,0,0,0,0,0,0,0,0,0,0,0,0,
0,0,0,0,0,0,0,0,0,0,0,0,0,0,0,0,0,0,0,0,0,0,0,0,0,0,0,0,0,0,0,0,0,0,0,0,0,0,0,0,0,0,0,0,0,0,0,0,0,0,0,0,0,0,0,0,0,0,0,0,0,0,0,0,0,0,0,0,0,0,0,0,0,0,0,0,0,0,0,0,
0,0,0,0,0,0,0,0,0,0,0,0,0,0,0,0,0,0,0,0,0,0,0,0,0,0,0,0,0,0,0,0,0,0,0,0,0,0,0,0,0,0,0,0,0,0,0,0,0,0,0,0,0,0,0,0,0,0,0,0,0,0,0,0,0,0,0,0,0,0,0,0,0,0,0,0,0,0,0,0,
0,0,0,0,0,0,0,0,0,0,0,0,0,0,0,0,0,0,0,0,0,0,0,0,0,0,0,0,0,0,0,0,0,0,0,0,0,0,0,0,0,0,0,0,0,0,0,0,0,0,0,0,0,0,0,0,0,0,0,0,0,0,0,0,0,0,0,0,0,0,0,0,0,0,0,0,0,0,0,0,
0,0,0,0,0,0,0,0,0,0,0,0,0,0,0,0,0,0,0,0,0,0,0,0,0,0,0,0,0,0,0,0,0,0,0,0,0,0,0,0,0,0,0,0,0,0,0,0,0,0,0,0,0,0,0,0,0,0,0,0,0,0,0,0,0,0,0,0,0,0,0,0,0,0,0,0,0,0,0,0,
0,0,0,0,0,0,0,0,0,0,0,0,0,0,0,0,0,0,0,0,0,0,0,0,0,0,0,0,0,0,0,0,0,0,0,0,0,0,0,0,0,0,0,0,0,0,0,0,0,0,0,0,0,0,0,0,0,0,0,0,0,0,0,0,0,0,0,0,0,0,0,0,0,0,0,0,256526,256527,256527,256528,
0,0,0,0,0,0,0,0,0,0,0,0,0,0,0,0,0,0,0,0,0,0,0,0,0,0,0,0,0,0,0,0,0,0,0,0,0,0,0,0,0,0,0,0,0,0,0,0,0,0,0,0,0,0,0,0,0,0,0,0,0,0,0,0,0,0,0,0,0,0,0,0,256526,256527,256527,256527,256766,256914,256957,256765,
0,0,0,0,0,0,0,0,0,0,0,0,0,0,0,0,0,0,0,0,0,0,0,0,0,0,0,0,0,0,0,0,0,0,0,0,0,0,0,0,0,0,0,0,0,0,0,0,0,0,0,0,0,0,0,0,0,0,0,0,0,0,0,0,0,0,0,0,0,0,0,256526,256766,256914,256912,256717,256623,256623,256623,256718,
0,0,0,0,0,0,0,0,0,0,0,0,0,0,0,0,0,0,0,0,0,0,0,0,0,0,0,0,0,0,0,0,0,0,0,0,0,0,0,0,0,0,0,0,0,0,0,0,0,0,0,0,0,0,0,0,0,0,0,0,0,0,0,0,0,0,0,0,0,0,0,256622,256718,256717,256623,256624,0,0,0,256577,
0,0,0,0,0,0,0,0,0,0,0,0,0,0,0,0,0,0,0,0,0,0,0,0,0,0,0,0,0,0,0,0,0,0,0,0,0,0,0,0,0,0,0,0,0,0,0,0,0,0,0,0,0,0,0,0,0,0,0,0,0,0,0,0,0,0,0,0,0,0,256526,256527,256766,256576,256526,256527,256527,256527,256527,256721,
0,0,0,0,0,0,0,0,0,0,0,0,0,0,0,0,0,0,0,0,0,0,0,0,0,0,0,0,0,0,0,0,0,0,0,0,0,0,0,0,0,0,0,0,0,0,0,0,0,0,0,0,0,0,0,0,0,0,0,0,0,0,0,0,0,0,0,0,0,256526,256766,256913,256575,256765,256766,256909,256914,256575,256909,256957,
0,0,0,0,0,0,0,0,0,0,0,0,0,0,0,0,0,0,0,0,0,0,0,0,0,0,0,0,0,0,0,0,0,0,0,0,0,0,0,0,0,0,0,0,0,0,0,0,0,0,0,0,0,0,0,0,0,0,0,0,0,0,0,0,0,0,0,0,0,256574,256914,256575,257055,256913,256958,257055,256957,256909,256959,256717,
0,0,0,0,0,0,0,0,0,0,0,0,0,0,0,0,0,0,0,0,0,0,0,0,0,0,0,0,0,0,0,0,0,0,0,0,0,0,0,0,0,0,0,0,0,0,0,0,0,0,0,0,0,0,0,0,0,0,0,0,0,0,0,0,0,0,0,0,0,256574,256911,256717,256718,256959,256913,256913,257055,256958,256958,256576,
0,0,0,0,0,0,0,0,0,0,0,0,0,0,0,0,0,0,0,0,0,0,0,0,0,0,0,0,0,0,0,0,0,0,0,0,0,0,0,0,0,0,0,0,0,0,0,0,0,0,0,0,0,0,0,0,0,0,0,0,0,0,0,0,0,0,0,256526,256527,256766,256717,256624,256574,257055,256914,256717,256623,256623,256718,256576,
0,0,0,0,0,0,0,0,0,0,0,0,0,0,0,0,0,0,0,0,0,0,0,0,0,0,0,0,0,0,0,0,0,0,0,0,0,0,0,0,0,0,0,0,0,0,0,0,0,0,0,0,0,0,0,0,0,0,0,0,0,0,0,0,0,256526,256527,256766,256909,256717,256624,256526,256766,256717,256623,256624,0,0,256622,256624,
0,0,0,0,0,0,0,0,0,0,0,0,0,0,0,0,0,0,0,0,0,0,0,0,0,0,0,0,0,0,0,0,0,0,0,0,0,0,0,0,0,0,0,0,0,0,0,0,0,0,0,0,0,0,0,0,0,0,0,0,0,0,0,0,256526,256766,256958,256959,256717,256624,256526,256766,256717,256624,0,0,0,0,0,0,
0,0,0,0,0,0,0,0,0,0,0,0,0,0,0,0,0,0,0,0,0,0,0,0,0,0,0,0,0,0,0,0,0,0,0,0,0,0,0,0,0,0,0,0,0,0,0,0,0,0,0,0,0,0,0,0,0,0,0,0,0,0,0,256526,256766,256914,256912,256717,256818,256527,256766,256911,256576,0,0,0,0,0,0,0,
0,0,0,0,0,0,0,0,0,0,0,0,0,0,0,0,0,0,0,0,0,0,0,0,0,0,0,0,0,0,0,0,0,0,0,0,0,0,0,0,0,0,0,0,0,0,0,0,0,0,0,0,0,0,0,0,0,0,0,0,0,0,0,256574,256913,256909,256575,256576,256574,256957,256959,256717,256624,0,0,0,0,0,0,0,
0,0,0,0,0,0,0,0,0,0,0,0,0,0,0,0,0,0,0,0,0,0,0,0,0,0,0,0,0,0,0,0,0,0,0,0,0,0,0,0,0,0,0,0,0,0,0,0,0,0,0,0,0,0,0,0,0,0,0,0,0,0,0,256574,256957,257055,256958,256576,256574,256912,256913,256765,256528,0,0,0,0,0,0,0,
0,0,0,0,0,0,0,0,0,0,0,0,0,0,0,0,0,0,0,0,0,0,0,0,0,0,0,0,0,0,0,0,0,0,0,0,0,0,0,0,0,0,0,0,0,0,0,0,0,0,0,0,0,0,0,0,0,0,0,0,0,0,0,256574,256914,256957,256717,256818,256766,256913,256959,256958,256576,0,0,0,0,0,0,0,
0,0,0,0,0,0,0,0,0,0,0,0,0,0,0,0,0,0,0,0,0,0,0,0,0,0,0,0,0,0,0,0,0,0,0,0,0,0,0,0,0,0,0,0,0,0,0,0,0,0,0,0,0,0,0,0,0,0,0,0,0,0,0,256574,256909,257055,256765,256766,256912,256959,256957,256913,256765,256527,256527,256528,0,0,0,0,
0,0,0,0,0,0,0,0,0,0,0,0,0,0,0,0,0,0,0,0,0,0,0,0,0,0,0,0,0,0,0,0,0,0,0,0,0,0,0,0,0,0,0,0,0,0,0,0,0,0,0,0,0,0,0,0,0,0,0,0,0,0,0,256622,256718,256914,256911,256958,256957,256913,256910,257055,257055,256959,256959,256576,0,0,0,0
</data>
 </layer>
 <layer id="4" name="OnGround" width="80" height="45">
  <data encoding="csv">
259483,259455,259455,259470,259474,0,0,0,240206,240528,240271,240271,240526,240207,240207,240208,0,0,0,0,0,0,0,0,0,0,0,0,0,240206,240207,240207,240208,0,0,0,0,0,0,239170,239246,239224,239318,0,0,0,0,0,0,0,0,0,0,240206,240207,240528,240526,240528,240271,240271,240271,240271,240271,240271,240526,240207,240207,240207,240207,240207,240207,240207,240528,240271,240271,240271,240526,240207,240207,240207,
259510,259461,259477,259468,0,0,0,0,240334,240464,240271,240271,240271,240271,240271,240526,240207,240208,0,0,0,0,0,0,0,0,0,240206,240207,240528,240271,240271,240526,240208,0,0,0,0,0,0,239332,239153,239154,0,0,0,0,0,0,0,0,0,0,240270,240271,240271,240271,240271,240271,240271,240271,240271,240271,240271,240271,240271,240271,240271,240271,240271,240271,240271,240271,240271,240271,240271,240271,240271,240271,240462,
259508,259477,259468,0,0,0,0,0,0,240334,240464,240271,240271,240271,240271,240271,240271,240526,240207,240207,240208,0,240206,240207,240207,240207,240207,240528,240271,240271,240271,240271,240271,240272,0,0,0,0,0,0,239333,239153,239317,0,0,0,0,0,0,0,0,0,0,240270,240271,240271,240271,240271,240271,240271,240271,240271,240271,240271,240271,240271,240271,240271,240271,240271,240271,240271,240271,240271,240271,240271,240271,240271,240462,240336,
259503,259462,0,0,0,0,0,0,0,0,240334,240466,240467,240467,240335,240464,240271,240271,240271,240271,240526,240207,240528,240271,240271,240271,240271,240271,240271,240271,240462,240466,240466,240336,0,0,0,0,0,0,239152,239295,239223,239136,0,0,0,0,0,0,0,0,0,240270,240271,240271,240271,240271,240271,240271,240271,240271,240271,240271,240271,240271,240271,240271,240271,240271,240271,240271,240462,240466,240467,240467,240335,240467,240336,0,
259504,259483,259456,0,0,0,0,0,0,0,0,0,0,0,0,240270,240271,240271,240271,240271,240271,240271,240271,240271,240271,240271,240462,240466,240466,240335,240336,0,0,0,0,0,0,0,0,0,239170,239206,239277,239154,0,0,0,0,0,0,0,0,0,240334,240464,240271,240271,240271,240271,240271,240271,240271,240271,240271,240271,240271,240271,240271,240462,240467,240467,240466,240336,0,0,0,0,0,0,0,
259506,259501,259462,0,0,0,0,0,0,0,0,0,0,0,0,240334,240467,240464,240271,240271,240271,240271,240462,240466,240467,240467,240336,0,0,0,0,0,0,0,0,0,0,0,0,0,0,239333,239296,239317,0,0,0,0,0,0,0,0,0,0,240334,240464,240271,240271,240271,240271,240271,240271,240271,240271,240271,240271,240271,240271,240272,0,0,0,0,0,0,0,0,0,0,0,
259509,259506,259483,259456,0,0,0,0,0,0,0,0,0,0,0,0,0,240334,240466,240335,240466,240466,240336,0,0,0,0,0,0,0,0,0,0,0,0,0,0,0,0,0,0,239331,239153,239317,0,0,0,0,0,0,0,0,0,0,0,240334,240464,240271,240271,240271,240271,240271,240271,240271,240462,240466,240466,240335,240336,0,0,0,0,0,0,0,0,0,0,0,
259511,259508,259505,259483,259456,0,0,0,0,0,0,0,0,0,0,0,0,0,0,0,0,0,0,0,0,0,0,0,0,0,0,0,0,0,0,0,0,0,0,0,0,239331,239277,239316,0,0,0,0,0,0,0,0,0,0,0,0,240334,240335,240335,240464,240271,240271,240462,240335,240336,0,0,0,0,0,0,0,0,0,0,0,0,0,0,0,
259508,259461,259504,259511,259462,0,0,0,0,0,0,0,0,0,0,0,0,0,0,0,0,0,0,0,0,0,0,0,0,0,0,0,0,0,0,0,0,0,0,0,239134,239224,239278,239154,0,0,0,0,0,0,0,0,0,0,0,0,0,0,0,240334,240466,240466,240336,0,0,0,0,0,0,0,0,0,0,0,0,0,0,0,0,0,
259512,259512,259477,259467,259468,0,0,0,0,0,0,0,0,0,0,0,0,0,0,0,0,0,0,0,0,0,0,0,0,0,0,0,0,0,0,0,0,0,0,0,239332,239205,239206,239154,0,0,0,0,0,0,0,0,0,0,0,0,0,0,0,0,0,0,0,0,0,0,0,0,0,0,0,0,0,0,0,0,0,0,0,0,
259461,259461,259462,0,0,0,0,0,0,0,0,0,0,0,0,0,0,0,0,0,0,0,0,0,0,0,0,0,0,0,0,0,0,0,0,0,0,0,0,0,239331,239223,239245,239172,0,0,0,0,0,0,0,0,0,0,0,0,0,0,0,0,0,0,0,0,0,0,0,0,0,0,0,0,0,0,0,0,0,0,0,0,
259461,259477,259468,0,0,0,0,0,0,0,0,0,0,0,0,0,0,0,0,0,0,0,0,0,0,0,0,0,0,0,0,0,0,0,0,0,0,0,0,239134,239224,239205,239172,0,0,0,0,0,0,0,0,0,0,0,0,0,0,0,0,0,0,0,0,0,0,0,0,0,0,0,0,0,0,0,0,0,0,0,0,0,
259506,259462,0,0,0,0,0,0,0,0,0,0,0,0,0,0,0,0,0,0,0,0,0,0,0,0,0,0,0,0,0,0,0,0,0,0,0,0,239134,239224,239278,239318,0,0,0,0,0,0,0,0,0,0,0,0,0,0,0,0,0,0,0,0,0,0,0,0,0,0,0,0,0,0,0,0,0,0,0,0,0,0,
259477,259468,0,0,0,0,0,0,0,0,0,0,0,0,0,0,0,0,0,0,0,0,0,0,0,0,0,0,0,0,0,0,0,0,0,0,0,239134,239224,239205,239314,239172,0,0,0,0,0,0,0,0,0,0,0,0,0,0,0,0,0,0,0,0,0,0,0,0,0,0,0,0,0,0,0,0,0,0,0,0,0,0,
259462,0,0,0,0,0,0,0,0,0,0,0,0,0,0,0,0,0,0,0,0,0,0,0,0,0,0,0,0,0,0,0,0,0,0,0,239134,239224,239205,239172,0,0,0,0,0,0,0,0,0,0,0,0,0,0,0,0,0,0,0,0,0,0,0,0,0,0,0,0,0,0,0,0,0,0,0,0,0,0,0,0,
259476,0,0,0,0,0,0,0,0,0,0,0,0,0,0,0,0,0,0,0,0,0,0,0,0,0,0,0,0,0,0,0,0,0,0,239134,239224,239296,239154,0,0,0,0,0,0,0,0,0,0,0,0,0,0,0,0,0,0,0,0,0,0,0,0,0,0,0,0,0,0,0,0,0,0,0,0,0,0,0,0,0,
259481,259456,0,0,0,0,0,0,0,0,0,0,0,0,0,0,0,0,0,0,0,0,0,0,0,0,0,0,0,0,0,0,0,0,239134,239224,239205,239314,239172,0,0,0,0,0,0,0,0,0,0,0,0,0,0,0,0,0,0,0,0,0,0,0,0,0,0,0,0,0,0,0,0,0,0,0,0,0,0,0,0,0,
259506,259462,0,0,0,0,0,0,0,0,0,0,0,0,0,0,0,0,0,0,0,0,0,0,0,0,0,0,0,0,0,0,0,239134,239224,239205,239172,0,0,0,0,0,0,0,0,0,0,0,0,0,0,0,0,0,0,0,0,0,0,0,0,0,0,0,0,0,0,0,0,0,0,0,0,0,0,0,0,0,0,0,
259509,259462,0,0,0,0,0,0,0,0,0,0,0,0,0,0,0,0,0,0,0,0,0,0,0,0,0,0,0,0,0,0,239134,239224,239205,239172,0,0,0,0,0,0,0,0,0,0,0,0,0,0,0,0,0,0,0,0,0,0,0,0,0,0,0,0,0,0,0,0,0,0,0,0,0,0,0,0,0,0,0,0,
259510,259462,0,0,0,0,0,0,0,0,0,0,0,0,0,0,0,0,0,0,0,0,0,0,0,0,0,0,0,0,0,239134,239224,239295,239154,0,0,0,0,0,0,0,0,0,0,0,0,0,0,0,0,0,0,0,0,0,0,0,0,0,0,0,0,0,0,0,0,0,0,0,0,0,0,0,0,0,0,0,234574,234576,
259461,259482,259474,0,0,0,0,0,0,0,0,0,239134,239335,239334,239135,239335,239135,239136,0,0,0,0,0,0,0,0,0,0,0,0,239152,239296,239205,239172,0,0,0,0,0,0,0,0,0,0,0,0,0,0,0,0,0,0,0,0,0,0,0,0,0,0,0,0,0,0,0,0,0,0,0,0,0,0,0,0,234574,234575,234575,234814,234624,
259509,259483,259456,0,0,0,0,0,0,0,0,239134,239245,239313,239314,239314,239313,239314,239246,239334,239136,0,0,0,0,0,0,0,0,0,239134,239224,239205,239172,0,0,0,0,0,0,0,0,0,0,0,0,0,0,0,0,0,0,0,0,0,0,0,0,0,0,0,0,0,0,0,0,0,0,0,234574,234575,234575,234575,234575,234575,234814,234635,234623,234623,234624,
259509,259503,259462,0,239134,239335,239136,0,0,239134,239334,239245,239172,0,0,0,0,0,239170,239314,239246,239336,239136,0,0,0,0,0,0,239134,239224,239205,239172,0,0,0,0,0,0,0,259592,259594,0,0,0,0,0,0,0,0,0,0,0,0,0,0,0,0,0,0,0,234574,234575,234575,234575,234575,234575,234575,234575,234814,234623,235010,234960,235009,234765,234671,234671,234671,234671,234672,
239335,239135,239335,239335,239224,239205,239246,239135,239336,239224,239205,239172,0,0,0,0,0,0,0,0,239170,239314,239246,239136,0,0,0,0,0,239332,239277,239317,0,0,0,0,0,259694,259695,259695,259695,259695,259695,259695,259695,259695,259696,259574,259590,0,0,0,0,0,0,0,0,0,0,0,234574,234814,234635,234959,235009,234961,235006,234765,234671,234671,234671,234671,234671,234671,234672,0,0,0,0,0,
239296,239278,239278,239205,239315,239172,239170,239315,239171,239314,239172,0,0,0,0,0,0,0,0,0,0,0,239170,239246,239336,239136,0,0,239134,239224,239205,239172,0,0,0,0,0,259706,259707,259707,259707,259707,259707,259707,259707,259707,259708,259586,235294,0,0,0,0,0,0,0,0,0,234574,234575,234814,234765,234671,234671,234671,234671,234671,234672,0,0,0,0,0,0,0,0,0,0,0,0,
239171,239314,239315,239172,0,0,0,0,0,0,0,0,0,0,0,0,0,0,0,0,0,0,0,239170,239313,239246,239135,239136,239331,239205,239172,0,0,0,0,0,259574,259575,259576,259573,259573,259652,259653,259653,259653,259653,259654,0,0,0,0,0,0,234574,234575,234575,234575,234575,234814,235008,234765,234672,0,0,0,0,0,0,0,0,0,0,0,0,0,0,0,0,0,0,
259504,259506,259512,259483,259456,0,0,0,0,0,0,0,0,0,0,0,0,0,0,0,0,0,0,0,0,239170,239314,239246,239224,239223,239135,239334,239335,239136,0,0,259586,259587,259588,259585,259585,259592,259593,259593,259593,0,0,0,0,0,234574,234575,234575,234814,234635,235008,234623,234959,234765,234671,234672,0,0,0,0,0,0,0,0,0,0,0,0,0,0,0,0,0,0,0,
259461,259509,259461,259512,259462,0,0,0,0,0,0,0,0,0,0,0,0,0,0,0,0,0,0,0,0,0,0,239170,239314,239313,239171,239314,239206,239223,239136,0,0,0,0,235246,235247,0,0,0,0,0,0,0,0,234574,234814,235006,234959,234635,234623,234960,234765,234671,234672,0,0,0,0,0,0,0,0,0,0,0,0,0,0,0,0,0,0,0,0,0,
259461,259504,259511,259461,259483,259456,0,0,0,0,0,0,0,0,0,0,0,0,0,0,0,0,0,0,0,0,0,0,0,0,0,0,239170,239171,239246,239335,239136,0,0,235486,0,0,0,0,0,0,0,0,234574,234814,234623,234765,234671,234671,234671,234766,234813,234575,234576,0,0,0,0,0,0,0,0,0,0,0,0,0,0,0,0,0,0,0,0,0,
259501,259509,259461,259511,259510,259462,0,0,0,0,0,0,0,0,0,0,0,0,0,0,0,0,0,0,0,0,0,0,0,0,0,0,0,0,239170,239206,239223,239136,0,0,0,0,0,0,234574,234575,234575,234575,234814,235007,234960,234624,0,0,0,234670,234766,234959,234813,234576,0,0,0,0,0,0,0,0,0,0,0,0,0,0,0,0,0,0,0,0,
259504,259504,259502,259510,259477,259468,0,0,0,0,0,0,0,0,0,0,0,0,0,0,0,0,0,0,0,0,0,0,0,0,0,0,0,0,0,239170,239206,239223,239136,0,0,0,0,234574,234814,234623,234765,234671,234671,234671,234671,234672,0,0,0,0,234670,234671,234766,234813,234575,234576,0,0,0,0,0,0,0,0,0,0,0,0,0,0,0,0,0,0,
259461,259461,259501,259501,259462,0,0,0,0,0,0,0,0,0,0,0,0,0,0,0,0,0,0,0,0,0,0,0,0,0,0,0,0,0,0,0,239170,239206,239223,239136,0,234574,234575,234814,234765,234671,234672,0,0,0,0,0,0,0,0,0,0,0,234670,234671,234766,234813,234575,234576,0,0,0,0,0,0,0,0,0,0,0,0,0,0,0,0,
259509,259502,259461,259505,259462,0,0,0,0,0,0,0,0,0,0,0,0,0,0,0,0,0,0,0,0,0,0,0,0,0,0,0,0,0,0,0,0,239152,239277,239154,0,234670,234766,234765,234672,0,0,0,0,0,0,0,0,0,0,0,0,0,0,0,234670,234671,234766,234813,234576,0,0,0,0,0,0,0,0,0,0,0,0,0,0,0,
259461,259501,259507,259477,259468,0,0,0,0,0,0,0,0,0,0,0,0,0,0,0,0,0,0,0,0,0,0,0,0,0,0,0,0,0,0,0,0,239170,239206,239223,239335,239136,234670,234672,0,0,0,0,0,0,0,0,0,0,0,0,0,0,0,0,0,0,234670,234766,234813,234576,0,0,0,0,0,0,0,0,0,0,0,0,0,0,
259461,259461,259510,259462,0,0,0,0,0,0,0,0,0,0,0,0,0,0,0,0,0,0,0,0,0,0,0,0,0,0,0,0,0,0,0,0,0,0,239170,239206,239153,239223,239335,239136,0,0,0,0,0,0,0,0,0,0,0,0,0,0,0,0,0,0,0,234670,234766,234813,234575,234575,234576,0,0,0,0,0,0,0,0,0,0,259454,
259504,259508,259461,259462,0,0,0,0,0,0,0,0,0,0,0,0,0,0,0,0,0,0,0,0,0,0,0,0,0,0,0,0,0,0,0,0,0,0,0,239170,239315,239313,239206,239223,239136,0,0,0,0,0,0,0,0,0,0,0,0,0,0,0,0,0,0,0,234670,234766,234961,234629,234813,234575,234576,0,0,0,0,0,0,0,0,259460,
259461,259461,259477,259468,0,0,0,0,0,0,0,0,0,0,0,0,0,0,0,0,0,0,0,0,0,0,0,0,0,0,0,0,0,0,0,0,0,0,0,0,0,0,239170,239206,239223,239136,0,0,0,0,0,0,0,0,0,0,0,0,0,0,0,0,0,0,0,234670,234671,234671,234671,234766,234624,0,0,0,0,259454,259455,259455,259455,259484,
259508,259509,259462,0,0,0,0,0,0,0,0,0,0,0,0,0,0,0,0,0,0,0,0,0,0,0,0,0,0,0,0,0,0,0,0,0,0,0,0,0,0,0,0,239170,239228,239246,239136,0,0,0,0,0,0,0,0,0,0,0,0,0,0,0,0,0,0,0,0,0,0,234670,234672,0,0,259454,259455,259484,259503,259461,259506,259504,
259504,259511,259462,0,0,0,0,0,0,0,0,0,0,0,0,0,0,0,0,0,0,0,0,0,0,0,0,0,0,0,0,0,0,0,0,0,0,0,0,0,0,0,0,0,239173,239224,239223,239334,239136,0,0,0,0,0,0,0,0,0,0,0,0,0,0,0,0,0,0,0,0,0,0,0,259454,259484,259509,259502,259461,259502,259501,259477,
259461,259477,259468,0,0,0,0,0,0,0,0,0,0,0,0,0,0,0,0,0,0,0,0,0,0,0,0,0,0,0,0,0,0,0,0,0,0,0,0,0,0,0,0,0,239170,239171,239206,239297,239223,239136,0,0,0,0,0,0,0,0,0,0,0,0,0,0,0,0,0,0,0,0,0,0,259460,259461,259510,259501,259461,259512,259477,259468,
259511,259462,0,0,0,0,0,0,0,0,0,0,0,0,0,0,0,0,0,0,0,0,0,0,0,0,0,0,0,0,0,0,0,0,0,0,0,0,0,0,0,0,0,0,0,0,239170,239171,239315,239246,239336,239136,0,0,0,0,0,0,0,0,0,0,0,0,0,0,0,0,0,0,0,259454,259484,259507,259507,259461,259509,259477,259468,0,
259461,259462,0,0,0,0,0,0,0,0,0,0,0,0,0,0,0,0,0,0,0,0,0,0,0,0,0,0,0,0,0,0,0,0,0,0,0,0,0,0,0,0,0,0,0,0,0,0,0,239170,239206,239223,239336,239136,0,0,0,0,0,0,0,0,0,0,0,0,0,0,0,0,0,259460,259461,259507,259461,259461,259502,259483,259456,0,
259508,259483,259456,0,0,0,0,0,0,0,0,0,0,0,0,0,0,0,0,0,0,0,0,0,0,0,0,0,0,0,0,0,0,0,0,0,0,0,0,0,0,0,0,0,0,0,0,0,0,0,239333,239153,239279,239223,239136,0,0,0,0,0,0,0,0,0,0,0,0,0,0,0,0,259466,259478,259503,259512,259511,259509,259461,259483,259456,
259461,259504,259462,0,0,0,0,0,0,0,0,0,0,0,0,0,0,0,0,0,0,0,0,0,0,0,0,0,0,0,0,0,0,0,0,0,0,0,0,0,0,0,0,0,0,0,0,0,0,0,239170,239206,239153,239279,239317,0,0,0,0,0,0,0,0,0,0,0,0,0,0,0,0,0,259466,259467,259467,259478,259512,259505,259512,259483,
259510,259504,259462,0,0,0,0,0,0,0,0,0,0,0,0,0,0,0,0,0,0,0,0,0,0,0,0,0,0,0,0,0,0,0,0,0,0,0,0,0,0,0,0,0,0,0,0,0,0,0,0,239170,239171,239206,239318,0,0,0,0,0,0,0,0,0,0,0,0,0,0,0,0,0,0,0,259454,259484,259477,259467,259478,259477
</data>
 </layer>
 <layer id="3" name="Water" width="80" height="45">
  <data encoding="csv">
0,0,0,0,0,0,0,0,0,0,0,0,0,0,0,0,0,0,0,0,0,0,0,0,0,0,0,0,0,0,0,0,0,0,0,0,0,0,0,0,0,0,0,0,0,0,0,0,0,0,0,0,0,0,0,0,0,0,0,0,0,0,0,0,0,0,0,0,0,0,0,0,0,0,0,0,0,0,0,0,
0,0,0,0,0,0,0,0,0,0,0,0,0,0,0,0,0,0,0,0,0,0,0,0,0,0,0,0,0,0,0,0,0,0,0,0,0,0,0,0,0,0,0,0,0,0,0,0,0,0,0,0,0,0,0,0,0,0,0,0,0,0,0,0,0,0,0,0,0,0,0,0,0,0,0,0,0,0,0,0,
0,0,0,0,0,0,0,0,0,0,0,0,0,0,0,0,0,0,0,0,0,0,0,0,0,0,0,0,0,0,0,0,0,0,0,0,0,0,0,0,0,0,0,0,0,0,0,0,0,0,0,0,0,0,0,0,0,0,0,0,0,0,0,0,0,0,0,0,0,0,0,0,0,0,0,0,0,0,0,0,
0,0,0,0,0,0,0,0,0,0,0,0,0,0,0,0,0,0,0,0,0,0,0,0,0,0,0,0,0,0,0,0,0,0,0,0,0,0,0,0,0,0,0,0,0,0,0,0,0,0,0,0,0,0,0,0,0,0,0,0,0,0,0,0,0,0,0,0,0,0,0,0,0,0,0,0,0,0,0,0,
0,0,0,0,0,0,0,0,0,0,0,0,0,0,0,0,0,0,0,0,0,0,0,0,0,0,0,0,0,0,0,0,0,0,0,0,0,0,0,0,0,0,0,0,0,0,0,0,0,0,0,0,0,0,0,0,0,0,0,0,0,0,0,0,0,0,0,0,0,0,0,0,0,0,0,0,0,0,0,0,
0,0,0,0,0,0,0,0,0,0,0,0,0,0,0,0,0,0,0,0,0,0,0,0,0,0,0,0,0,0,0,0,0,0,0,0,0,0,0,0,0,0,0,0,0,0,0,0,0,0,0,0,0,0,0,0,0,0,0,0,0,0,0,0,0,0,0,0,0,0,0,0,0,0,0,0,0,0,0,0,
0,0,0,0,0,0,0,0,0,0,0,0,0,0,0,0,0,0,0,0,0,0,0,0,0,0,0,0,0,0,0,0,0,0,0,0,0,0,0,0,0,0,0,0,0,0,0,0,0,0,0,0,0,0,0,0,0,0,0,0,0,0,0,0,0,0,0,0,0,0,0,0,0,0,0,0,0,0,0,0,
0,0,0,0,0,0,0,0,0,0,0,0,0,0,0,0,0,0,0,0,0,0,0,0,0,0,0,0,0,0,0,0,0,0,0,0,0,0,0,0,0,0,0,0,0,0,0,0,0,0,0,0,0,0,0,0,0,0,0,0,0,0,0,0,0,0,0,0,0,0,0,0,0,0,0,0,0,0,0,0,
0,0,0,0,0,0,0,0,0,0,0,0,0,0,0,0,0,0,0,0,0,0,0,0,0,0,0,0,0,0,0,0,0,0,0,0,0,0,0,0,0,0,0,0,0,0,0,0,0,0,0,0,0,0,0,0,0,0,0,0,0,0,0,0,0,0,0,0,0,0,0,0,0,0,0,0,0,0,0,0,
0,0,0,0,0,0,0,0,0,0,0,0,0,0,0,0,0,0,0,0,0,0,0,0,0,0,0,0,0,0,0,0,0,0,0,0,0,0,0,0,0,0,0,0,0,0,0,0,0,0,0,0,0,0,0,0,0,0,0,0,0,0,0,0,0,0,0,0,0,0,0,0,0,0,0,0,0,0,0,0,
0,0,0,0,0,0,0,0,0,0,0,0,0,0,0,0,0,0,0,0,0,0,0,0,0,0,0,0,0,0,0,0,0,0,0,0,0,0,0,0,0,0,0,0,0,0,0,0,0,0,0,0,0,0,0,0,0,0,0,0,0,0,0,0,0,0,0,0,0,0,0,0,0,0,0,0,0,0,0,0,
0,0,0,0,0,0,0,0,0,0,0,0,0,0,0,0,0,0,0,0,0,0,0,0,0,0,0,0,0,0,0,0,0,0,0,0,0,0,0,0,0,0,0,0,0,0,0,0,0,0,0,0,0,0,0,0,0,0,0,0,0,0,0,0,0,0,0,0,0,0,0,0,0,0,0,0,0,0,0,0,
0,0,0,0,0,0,0,0,0,0,0,0,0,0,0,0,0,0,0,0,0,0,0,0,0,0,0,0,0,0,0,0,0,0,0,0,0,0,0,0,0,0,0,0,0,0,0,0,0,0,0,0,0,0,0,0,0,0,0,0,0,0,0,0,0,0,0,0,0,0,0,0,0,0,0,0,0,0,0,0,
0,0,0,0,0,0,0,0,0,0,0,0,0,0,0,0,0,0,0,0,0,0,0,0,0,0,0,0,0,0,0,0,0,0,0,0,0,0,0,0,0,0,0,0,0,0,0,0,0,0,0,0,0,0,0,0,0,0,0,0,0,0,0,0,0,0,0,0,0,0,0,0,0,0,0,0,0,0,0,0,
0,0,0,0,0,0,0,0,0,0,0,0,0,0,0,0,0,0,0,0,0,0,0,0,0,0,0,0,0,0,0,0,0,0,0,0,0,0,0,0,0,0,0,0,0,0,0,0,0,0,0,0,0,0,0,0,0,0,0,0,0,0,0,0,0,0,0,0,0,0,0,0,0,0,0,0,0,0,0,0,
0,0,0,0,0,0,0,0,0,0,0,0,0,0,0,0,0,0,0,0,0,0,0,0,0,0,0,0,0,0,0,0,0,0,0,0,0,0,0,0,0,0,0,0,0,0,0,0,0,0,0,0,0,0,0,0,0,0,0,0,0,0,0,0,0,0,0,0,0,0,0,0,0,0,0,0,0,0,0,0,
0,0,0,0,0,0,0,0,0,0,0,0,0,0,0,0,0,0,0,0,0,0,0,0,0,0,0,0,0,0,0,0,0,0,0,0,0,0,0,0,0,0,0,0,0,0,0,0,0,0,0,0,0,0,0,0,0,0,0,0,0,0,0,0,0,0,0,0,0,0,0,0,0,0,0,0,0,0,0,0,
0,0,0,0,0,0,0,0,0,0,0,0,0,0,0,0,0,0,0,0,0,0,0,0,0,0,0,0,0,0,0,0,0,0,0,0,0,0,0,0,0,0,0,0,0,0,0,0,0,0,0,0,0,0,0,0,0,0,0,0,0,0,0,0,0,0,0,0,0,0,0,0,0,0,0,0,0,0,0,0,
0,0,0,0,0,0,0,0,0,0,0,0,0,0,0,0,0,0,0,0,0,0,0,0,0,0,0,0,0,0,0,0,0,0,0,0,0,0,0,0,0,0,0,0,0,0,0,0,0,0,0,0,0,0,0,0,0,0,0,0,0,0,0,0,0,0,0,0,0,0,0,0,0,0,0,0,0,0,0,0,
0,0,0,0,0,0,0,0,0,0,0,0,0,0,0,0,0,0,0,0,0,0,0,0,0,0,0,0,0,0,0,0,0,0,0,0,0,0,0,0,0,0,0,0,0,0,0,0,0,0,0,0,0,0,0,0,0,0,0,0,0,0,0,0,0,0,0,0,0,0,0,0,0,0,0,0,0,0,0,0,
0,0,0,0,0,0,0,0,0,0,0,0,0,0,0,0,0,0,0,0,0,0,0,0,0,0,0,0,0,0,0,0,0,0,0,0,0,0,0,0,0,0,0,0,0,0,0,0,0,0,0,0,0,0,0,0,0,0,0,0,0,0,0,0,0,0,0,0,0,0,0,0,0,0,0,0,0,0,0,0,
0,0,0,0,0,0,0,0,0,0,0,0,0,0,0,0,0,0,0,0,0,0,0,0,0,0,0,0,0,0,0,0,0,0,0,0,0,0,0,0,0,0,0,0,0,0,0,0,0,0,0,0,0,0,0,0,0,0,0,0,0,0,0,0,0,0,0,0,0,0,0,0,0,0,0,0,0,0,0,0,
0,0,0,0,0,0,0,0,0,0,0,0,0,0,0,0,0,0,0,0,0,0,0,0,0,0,0,0,0,0,0,0,0,0,0,0,0,0,0,0,0,0,0,0,0,0,0,0,0,0,0,0,0,0,0,0,0,0,0,0,0,0,0,0,0,0,0,0,0,0,0,0,0,0,0,0,0,0,0,0,
0,0,0,0,0,0,0,0,0,0,0,0,0,0,0,0,0,0,0,0,0,0,0,0,0,0,0,0,0,0,0,0,0,0,0,0,0,0,0,0,0,0,0,0,0,0,0,0,0,0,0,0,0,0,0,0,0,0,0,0,0,0,0,0,0,0,0,0,0,0,0,0,0,0,0,0,0,0,0,0,
0,0,0,0,0,0,0,0,0,0,0,0,0,0,0,0,0,0,0,0,0,0,0,0,0,0,0,0,0,0,0,0,0,0,0,0,0,0,0,0,0,0,0,0,0,0,0,0,0,0,0,0,0,0,0,0,0,0,0,0,0,0,0,0,0,0,0,0,0,0,0,0,0,0,0,0,0,0,0,0,
0,0,0,0,0,0,0,0,0,0,0,0,0,0,0,0,0,0,0,0,0,0,0,0,0,0,0,0,0,0,0,0,0,0,0,0,0,0,0,0,0,0,0,0,0,0,0,0,0,0,0,0,0,0,0,0,0,0,0,0,0,0,0,0,0,0,0,0,0,0,0,0,0,0,0,0,0,0,0,0,
0,0,0,0,0,0,0,0,0,0,0,0,0,0,0,0,0,0,0,0,0,0,0,0,0,0,0,0,0,0,0,0,0,0,0,0,0,0,0,0,0,0,0,0,0,0,0,0,0,0,0,0,0,0,0,0,0,0,0,0,0,0,0,0,0,0,0,0,0,0,0,0,0,0,0,0,0,0,0,0,
0,0,0,0,0,0,0,0,0,0,0,0,0,0,0,0,0,0,0,0,0,0,0,0,0,0,0,0,0,0,0,0,0,0,0,0,0,0,0,0,0,0,0,0,0,0,0,0,0,0,0,0,0,0,0,0,0,0,0,0,0,0,0,0,0,0,0,0,0,0,0,0,0,0,0,0,0,0,0,0,
0,0,0,0,0,0,0,0,0,0,0,0,0,0,0,0,0,0,0,0,0,0,0,0,0,0,0,0,0,0,0,0,0,0,0,0,0,0,0,0,0,0,0,0,0,0,0,0,0,0,0,0,0,0,0,0,0,0,0,0,0,0,0,0,0,0,0,0,0,0,0,0,0,0,0,0,0,0,0,0,
0,0,0,0,0,0,0,0,0,0,0,0,0,0,0,0,0,0,0,0,0,0,0,0,0,0,0,0,0,0,0,0,0,0,0,0,0,0,0,0,0,0,0,0,0,0,0,0,0,0,0,0,0,0,0,0,0,0,0,0,0,0,0,0,0,0,0,0,0,0,0,0,0,0,0,0,0,0,0,0,
0,0,0,0,0,0,0,0,0,0,0,0,0,0,0,0,0,0,0,0,0,0,0,0,0,0,0,0,0,0,0,0,0,0,0,0,0,0,0,0,0,0,0,0,0,0,0,0,0,0,0,0,0,0,0,0,0,0,0,0,0,0,0,0,0,0,0,0,0,0,0,0,0,0,0,259790,259791,260034,259791,259792,
0,0,0,0,0,0,0,0,0,0,0,0,0,0,0,0,0,0,0,0,0,0,0,0,0,0,0,0,0,0,0,0,0,0,0,0,0,0,0,0,0,0,0,0,0,0,0,0,0,0,0,0,0,0,0,0,0,0,0,0,0,0,0,0,0,0,0,0,0,0,0,0,0,260077,260056,259910,259815,259815,259815,259909,
0,0,0,0,0,0,0,0,0,0,0,0,0,0,0,0,0,0,0,0,0,0,0,0,0,0,0,0,0,0,0,0,0,0,0,0,0,0,0,0,0,0,0,0,0,0,0,0,0,0,0,0,0,0,0,0,0,0,0,0,0,0,0,0,0,0,0,0,0,0,0,0,0,260055,259885,260058,260032,259839,259886,259885,
0,0,0,0,0,0,0,0,0,0,0,0,0,0,0,0,0,0,0,0,0,0,0,0,0,0,0,0,0,0,0,0,0,0,0,0,0,0,0,0,0,0,0,0,0,0,0,0,0,0,0,0,0,0,0,0,0,0,0,0,0,0,0,0,0,0,0,0,0,0,0,0,259790,259937,260080,0,0,0,260079,259840,
0,0,0,0,0,0,0,0,0,0,0,0,0,0,0,0,0,0,0,0,0,0,0,0,0,0,0,0,0,0,0,0,0,0,0,0,0,0,0,0,0,0,0,0,0,0,0,0,0,0,0,0,0,0,0,0,0,0,0,0,0,0,0,0,0,0,0,0,0,0,0,0,260055,259816,0,0,0,0,0,0,
0,0,0,0,0,0,0,0,0,0,0,0,0,0,0,0,0,0,0,0,0,0,0,0,0,0,0,0,0,0,0,0,0,0,0,0,0,0,0,0,0,0,0,0,0,0,0,0,0,0,0,0,0,0,0,0,0,0,0,0,0,0,0,0,0,0,0,0,0,0,0,260077,259937,259840,0,0,0,0,0,0,
0,0,0,0,0,0,0,0,0,0,0,0,0,0,0,0,0,0,0,0,0,0,0,0,0,0,0,0,0,0,0,0,0,0,0,0,0,0,0,0,0,0,0,0,0,0,0,0,0,0,0,0,0,0,0,0,0,0,0,0,0,0,0,0,0,0,0,0,0,0,260077,259910,259816,0,0,0,0,0,0,0,
0,0,0,0,0,0,0,0,0,0,0,0,0,0,0,0,0,0,0,0,0,0,0,0,0,0,0,0,0,0,0,0,0,0,0,0,0,0,0,0,0,0,0,0,0,0,0,0,0,0,0,0,0,0,0,0,0,0,0,0,0,0,0,0,0,0,0,0,0,0,259814,259885,260080,0,0,0,0,0,0,0,
0,0,0,0,0,0,0,0,0,0,0,0,0,0,0,0,0,0,0,0,0,0,0,0,0,0,0,0,0,0,0,0,0,0,0,0,0,0,0,0,0,0,0,0,0,0,0,0,0,0,0,0,0,0,0,0,0,0,0,0,0,0,0,0,0,0,0,0,259790,259791,259937,260080,0,0,0,0,0,0,0,0,
0,0,0,0,0,0,0,0,0,0,0,0,0,0,0,0,0,0,0,0,0,0,0,0,0,0,0,0,0,0,0,0,0,0,0,0,0,0,0,0,0,0,0,0,0,0,0,0,0,0,0,0,0,0,0,0,0,0,0,0,0,0,0,0,0,0,0,259790,259937,260032,259840,0,0,0,0,0,0,0,0,0,
0,0,0,0,0,0,0,0,0,0,0,0,0,0,0,0,0,0,0,0,0,0,0,0,0,0,0,0,0,0,0,0,0,0,0,0,0,0,0,0,0,0,0,0,0,0,0,0,0,0,0,0,0,0,0,0,0,0,0,0,0,0,0,0,0,0,0,259814,260057,0,0,0,0,0,0,0,0,0,0,0,
0,0,0,0,0,0,0,0,0,0,0,0,0,0,0,0,0,0,0,0,0,0,0,0,0,0,0,0,0,0,0,0,0,0,0,0,0,0,0,0,0,0,0,0,0,0,0,0,0,0,0,0,0,0,0,0,0,0,0,0,0,0,0,0,0,0,259790,259910,259816,0,0,0,0,0,0,0,0,0,0,0,
0,0,0,0,0,0,0,0,0,0,0,0,0,0,0,0,0,0,0,0,0,0,0,0,0,0,0,0,0,0,0,0,0,0,0,0,0,0,0,0,0,0,0,0,0,0,0,0,0,0,0,0,0,0,0,0,0,0,0,0,0,0,0,0,0,0,260055,259885,260080,0,0,0,0,0,0,0,0,0,0,0,
0,0,0,0,0,0,0,0,0,0,0,0,0,0,0,0,0,0,0,0,0,0,0,0,0,0,0,0,0,0,0,0,0,0,0,0,0,0,0,0,0,0,0,0,0,0,0,0,0,0,0,0,0,0,0,0,0,0,0,0,0,0,0,0,0,0,260055,259816,0,0,0,0,0,0,0,0,0,0,0,0,
0,0,0,0,0,0,0,0,0,0,0,0,0,0,0,0,0,0,0,0,0,0,0,0,0,0,0,0,0,0,0,0,0,0,0,0,0,0,0,0,0,0,0,0,0,0,0,0,0,0,0,0,0,0,0,0,0,0,0,0,0,0,0,0,0,0,259826,259828,0,0,0,0,0,0,0,0,0,0,0,0
</data>
 </layer>
 <objectgroup id="6" name="ResourceZone" class="SpawnZone">
  <properties>
   <property name="Resource_Type">wood_pickup
stone_pickup
wood_chop
stone_mine</property>
  </properties>
  <object id="1" x="70.6667" y="701.333">
   <polygon points="0,0 52,-278.667 424,-241.333 674.667,4"/>
  </object>
  <object id="2" x="69.3333" y="324">
   <polygon points="0,0 29.3333,-266.667 253.333,-182.667 482.667,-241.333 540,-157.333 366.667,40 185.333,-24"/>
  </object>
  <object id="3" x="673.333" y="476">
   <polygon points="0,0 -141.333,-85.3333 46.6667,-301.333 49.3333,-390.667 169.333,-376 281.333,-305.333 393.333,-329.333 554.667,-386.667 596,-381.333 590.667,-193.333 309.333,-130.667 97.3333,-61.3333"/>
  </object>
  <object id="4" x="893.333" y="702.667">
   <polygon points="0,0 -8,-64 -181.333,-153.333 -30.6667,-212 136,-132 125.333,-78.6667 106.667,5.33333"/>
  </object>
  <object id="5" x="1104" y="534.667">
   <polygon points="0,0 -138.667,-80 -34.6667,-130.667 69.3333,-145.333 162.667,-164 173.333,-101.333 72,-74.6667"/>
  </object>
 </objectgroup>
 <objectgroup id="7" name="SpawnPoint">
  <object id="6" x="466.667" y="418.182">
   <point/>
  </object>
 </objectgroup>
 <objectgroup id="8" name="Teleport">
  <object id="8" x="618.182" y="3.0303" width="63.6364" height="27.2727"/>
  <object id="9" x="0" y="363.636" width="15.1515" height="54.5455"/>
  <object id="10" x="809.091" y="703.03" width="69.697" height="15.1515"/>
  <object id="11" x="1257.58" y="293.939" width="15.1515" height="69.697"/>
  <object id="12" x="1224.24" y="-187.879"/>
 </objectgroup>
</map>
