<?xml version="1.0" encoding="UTF-8"?>
<map version="1.10" tiledversion="1.12.1" orientation="orthogonal" renderorder="right-down" width="50" height="25" tilewidth="16" tileheight="16" infinite="0" nextlayerid="9" nextobjectid="18">
 <tileset firstgid="1" source="SSW/Tavern.tsx"/>
 <tileset firstgid="3673" source="SSW/VP2_Main (2).tsx"/>
 <layer id="1" name="圖塊層 1" width="50" height="25">
  <data encoding="csv">
1951,1641,1573,1644,1505,1506,1369,1439,1576,1438,1372,1641,1574,1573,1439,1372,1370,1371,1507,1641,1573,1505,1574,1642,1642,1505,1369,1438,1574,1505,1506,1507,1508,1370,1575,1574,1369,1505,1506,1507,1508,1574,1641,1505,1641,1505,1370,1576,1369,1890,
2019,1437,1440,1575,1369,1644,1371,1369,1508,1505,1440,1576,1573,1644,1644,1508,1576,1438,1642,1573,1370,1437,1576,1372,1372,1506,1507,1508,1644,1573,1574,1575,1576,1644,1439,1437,1507,1573,1574,1575,1576,1438,1371,1644,1505,1573,1643,1372,1576,1958,
1611,1507,1506,1505,1371,1574,1370,1576,1372,1508,1642,1505,1643,1506,1576,1576,1440,1506,1576,1370,1507,1505,1644,1644,1573,1643,1641,1576,1644,1641,1642,1643,1644,1574,1506,1505,1576,1641,1642,1643,1644,1370,1505,1644,1642,1641,1641,1507,1641,2026,
1679,1372,1440,1576,1369,1644,1643,1573,1369,1642,1642,1573,1506,1641,1573,1573,1507,1576,1507,1507,1437,1369,1370,1371,1372,1369,1575,1576,1440,1369,1370,1371,1372,1439,1372,1369,1439,1369,1370,1371,1372,1575,1438,1641,1440,1369,1369,1573,1438,1618,
1747,1438,1439,1575,1916,1917,1371,1574,1505,1508,1506,1641,1440,1916,1917,1574,1576,1576,1438,1507,1439,1437,1438,1439,1916,1917,1507,1505,1440,1437,1438,1439,1440,1371,1916,1917,1574,1437,1438,1439,1440,1507,1642,1643,1916,1917,1642,1505,1505,1686,
1815,1508,1439,1574,1984,1985,1575,1641,1641,1506,1440,1438,1440,1984,1985,1371,1438,1576,1440,1911,1912,1505,1506,1507,1984,1985,1372,1438,1440,1911,1912,1507,1508,1372,1984,1985,1438,1505,1506,1507,1508,1440,1507,1508,1984,1985,1576,1575,1644,1754,
1883,1576,1505,1439,1505,1372,1506,1575,1508,1372,1508,1644,1644,1642,1372,1641,1505,1505,1369,1979,1980,1573,1574,1575,1576,1644,1437,1371,1438,1979,1980,1575,1576,1576,1438,1574,1438,1573,1574,1575,1576,1440,1505,1575,1439,1573,1370,1643,1372,1822,
1951,1438,1643,1507,1505,1370,1644,1369,1641,1576,1641,1576,1438,1574,1642,1642,1440,1641,1506,2047,2048,1641,1642,1643,1644,1644,1575,1439,1644,2047,2048,1643,1644,1505,1574,1372,1575,1641,1642,1643,1644,1575,1576,1576,1439,1641,1438,1505,1438,1890,
2092,2093,2088,2089,2090,2091,2092,2093,2088,2089,2090,2091,2092,2093,2088,2089,2090,2091,2092,2115,2116,2089,2090,2091,2092,2093,2088,2089,2090,2115,2116,2093,2088,2089,2090,2091,2092,2093,2088,2089,2090,2091,2092,2093,2088,2089,2090,2091,2092,2093,
1228,1229,1230,1228,1229,1230,1228,1229,1230,1231,1232,1233,1234,1228,1229,1230,1228,1229,1230,1231,1232,1233,1234,1228,1229,1230,1228,1229,1230,1231,1232,1233,1234,1235,1236,1228,1228,1229,1230,1231,1232,1233,1234,1235,1236,1228,1229,1228,1229,1230,
1679,1371,1507,1576,1371,1574,1369,1507,1370,1299,1300,1574,1437,1371,1506,1574,1641,1575,1642,1299,1300,1505,1506,1507,1508,1507,1506,1505,1506,1299,1300,1507,1508,1642,1575,1573,1438,1505,1506,1299,1300,1641,1370,1644,1643,1505,1438,1439,1642,1686,
1747,1576,1505,1506,1574,1642,1573,1439,1371,1367,1368,1506,1644,1642,1643,1506,1372,1369,1439,1367,1368,1573,1574,1575,1576,1507,1642,1438,1370,1367,1368,1575,1576,1574,1507,1641,1371,1573,1574,1367,1368,1576,1505,1439,1641,1573,1505,1506,1438,1754,
1815,1643,1440,1573,1371,1508,1643,1641,1508,1435,1436,1642,1438,1576,1370,1439,1576,1642,1576,1435,1436,1641,1642,1643,1644,1643,1438,1643,1576,1435,1436,1643,1644,1641,1508,1573,1508,1641,1642,1435,1436,1506,1437,1642,1369,1641,1370,1576,1573,1822,
1883,1641,1642,1507,1576,1440,1437,1439,1576,1503,1504,1644,1438,1508,1508,1372,1575,1506,1574,1503,1504,1369,1370,1371,1372,1573,1438,1369,1574,1503,1504,1371,1372,1576,1371,1574,1644,1369,1370,1503,1504,1573,1372,1508,1507,1369,1439,1440,1370,1890,
1951,1575,1505,1440,1438,1642,1440,1574,1369,1571,1572,1438,1506,1438,1437,1438,1644,1439,1642,1571,1572,1437,1438,1439,1440,1440,1438,1507,1505,1571,1572,1439,1440,1437,1370,1641,1506,1437,1438,1571,1572,1437,1439,1370,1369,1437,1574,1439,1369,1958,
2019,1505,1573,1438,1507,1642,1508,1574,1576,1639,1640,1506,1370,1576,1643,1641,1574,1505,1505,1639,1640,1505,1506,1507,1508,1574,1576,1508,1372,1639,1640,1507,1508,1642,1644,1371,1369,1505,1506,1639,1640,1437,1642,1576,1507,1505,1439,1439,1574,2026,
1611,1437,1576,1573,1440,1505,1369,1440,1576,1707,1708,1641,1439,1641,1507,1573,1371,1641,1507,1707,1708,1573,1574,1575,1576,1369,1642,1644,1576,1707,1708,1575,1576,1574,1507,1575,1437,1573,1574,1707,1708,1439,1372,1370,1644,1573,1508,1438,1439,1618,
1679,1576,1370,1641,1641,1573,1508,1507,1371,1367,1368,1643,1372,1440,1644,1438,1440,1440,1642,1367,1368,1641,1642,1643,1644,1370,1370,1575,1369,1367,1368,1643,1644,1371,1505,1575,1508,1641,1642,1367,1368,1641,1372,1437,1641,1641,1371,1505,1642,1686,
1747,1371,1505,1641,2181,2182,1369,1370,1440,1435,1436,1507,1371,1438,2181,2182,1438,1576,1643,1435,1436,1369,1370,1371,2181,2182,1642,1643,1576,1435,1436,1371,1372,1437,2181,2182,1507,1369,1370,1435,1436,1576,1438,1575,2181,2182,1506,1372,1506,1754,
1815,1372,1437,1439,2249,2250,1644,1369,1370,1503,1504,1643,1576,1574,2249,2250,1370,1644,1643,1503,1504,1437,1438,1439,2249,2250,1507,1440,1505,1503,1504,1439,1440,1370,2249,2250,1576,1437,1438,1503,1504,1440,1643,1506,2249,2250,1642,2185,2186,1822,
1883,1575,1576,1576,2317,2318,1642,1370,1438,1571,1572,1438,1506,1506,2317,2318,1438,1372,1371,1571,1572,1505,1506,1507,2317,2318,1574,1372,1440,1571,1572,1507,1508,1507,2317,2318,1507,1505,1506,1571,1572,1506,1643,1371,2317,2318,1438,2253,2254,1890,
1951,1369,1575,1371,1372,1440,1573,1642,1371,1639,1640,1370,1505,1371,1370,1644,1505,1576,1372,1639,1640,1573,1574,1575,1576,1439,1371,1507,1643,1639,1640,1575,1576,1438,1371,1439,1576,1573,1574,1639,1640,1440,1440,1643,1439,1573,1371,2321,2322,1958,
2019,1641,1573,1505,1508,1573,1440,1641,1644,1707,1708,1440,1643,1505,1508,1508,1372,1574,1371,1707,1708,1641,1642,1643,1644,1574,1643,1440,1505,1707,1708,1643,1644,1371,1508,1437,1369,1641,1642,1707,1708,1644,1573,1573,1372,1641,1439,2389,2390,2026,
2087,2088,2089,2090,2087,2087,2087,2087,2087,2087,2087,2087,2087,2087,2087,2087,2087,2087,2087,2087,2087,2087,2087,2087,2087,2087,2087,2087,2087,2087,2087,2087,2087,2087,2087,2087,2087,2087,2087,2088,2089,2090,2087,2087,2087,2087,2087,2087,2087,2087,
2155,2156,2157,2158,2155,2155,2155,2155,2155,2155,2155,2155,2155,2155,2155,2155,2155,2155,2155,2155,2155,2155,2155,2155,2155,2155,2155,2155,2155,2155,2155,2155,2155,2155,2155,2155,2155,2155,2155,2156,2157,2158,2155,2155,2155,2155,2155,2155,2155,2155
</data>
 </layer>
 <layer id="2" name="圖塊層 2" width="50" height="25">
  <data encoding="csv">
1524,1524,1524,1524,1524,1524,1524,1524,1524,1514,1515,2447,2448,0,0,0,0,0,0,0,0,0,0,0,0,0,0,0,0,0,0,0,0,0,0,0,0,2447,2448,1522,1523,1524,1524,1524,1524,1524,1524,1524,1524,1524,
0,0,0,0,0,0,0,0,0,1582,1583,2515,2516,0,0,0,0,0,0,0,0,0,0,0,0,0,0,0,0,0,0,0,0,0,0,0,0,2515,2516,1590,1591,0,0,0,0,0,0,0,0,0,
0,0,0,0,0,0,0,0,0,1650,1651,2583,2584,0,0,0,0,0,0,0,0,0,0,0,0,0,0,0,0,0,0,0,0,0,0,0,0,2583,2584,1658,1659,0,0,0,0,0,0,0,0,0,
0,0,0,0,0,0,0,0,0,1718,1719,0,0,0,0,0,0,0,0,0,0,0,0,0,0,0,0,0,0,0,0,0,0,0,0,0,0,0,0,1726,1727,0,0,0,0,0,0,0,0,0,
0,0,0,0,0,0,0,0,0,1786,1787,0,0,0,0,0,0,0,0,0,0,0,0,0,0,0,0,0,0,0,0,0,0,0,0,0,0,0,0,1794,1795,0,0,0,0,0,0,0,0,0,
0,0,0,0,0,0,0,0,0,1854,1855,0,0,0,0,0,0,0,0,0,0,0,0,0,0,0,0,0,0,0,0,0,0,0,0,1281,1282,1283,1284,1862,1863,0,0,0,0,0,0,0,0,0,
0,0,0,0,0,0,0,0,0,1922,1923,0,0,0,0,0,0,0,0,0,0,0,0,1087,1088,0,0,0,0,0,0,0,0,0,0,1349,1350,1351,1352,1930,1931,0,0,0,0,0,0,0,0,0,
0,6259,6260,0,0,0,6245,6246,0,1990,1991,0,0,0,0,0,0,0,0,0,0,0,0,1155,1156,0,0,0,0,0,0,0,0,0,0,1417,1418,1419,1420,1998,1999,0,0,0,0,0,0,0,0,0,
0,6333,6334,0,0,0,6319,6320,0,0,0,0,0,0,0,0,0,0,0,0,0,0,0,1223,1224,0,0,0,0,0,0,0,0,0,0,1485,1486,1487,1488,0,0,0,0,0,0,0,0,0,0,0,
0,0,0,0,0,0,0,0,0,0,0,458,459,460,0,0,0,0,0,0,0,0,0,0,0,0,0,0,0,0,0,0,0,0,0,0,0,0,0,0,0,0,0,0,0,0,0,0,0,0,
0,0,0,0,2379,2380,0,0,0,0,0,526,527,528,2379,2380,0,0,0,0,0,0,0,0,2379,2380,0,0,0,0,0,0,0,0,2379,2380,0,0,0,0,0,0,0,0,2379,2380,0,0,0,0,
0,0,0,0,2447,2448,0,0,0,525,526,594,595,596,2447,2448,0,0,0,0,0,0,0,0,2447,2448,0,0,0,0,0,0,0,0,2447,2448,0,0,0,0,0,0,0,0,2447,2448,0,0,0,0,
0,0,0,0,2515,2516,0,0,0,593,594,595,596,0,2515,2516,0,0,0,0,0,0,0,0,2515,2516,0,0,0,0,0,0,0,0,2515,2516,0,0,0,0,0,0,0,0,2515,2516,0,0,0,0,
0,0,0,0,2583,2584,0,0,0,661,662,663,664,0,2583,2584,0,0,0,0,0,0,0,0,2583,2584,0,0,0,0,0,0,0,0,2583,2584,0,0,0,0,0,0,0,0,2583,2584,0,0,0,0,
0,0,0,0,0,0,525,526,527,528,0,0,0,0,0,0,0,0,0,0,0,0,0,0,0,0,0,0,0,0,0,0,0,0,0,0,0,0,0,0,0,0,0,0,0,0,0,0,0,0,
0,0,0,0,0,0,593,594,595,596,0,0,0,0,0,0,0,0,0,0,0,0,0,0,0,0,0,0,0,0,0,0,0,0,0,0,0,0,0,0,0,0,0,0,0,0,0,0,0,0,
0,0,0,0,0,0,661,662,663,664,0,0,0,0,0,0,0,0,0,0,0,0,0,0,0,0,0,0,0,0,0,0,0,0,0,0,0,0,0,0,0,0,0,0,0,0,0,0,0,0,
0,0,0,525,526,527,528,0,0,0,0,0,0,0,0,0,0,0,0,0,0,0,0,0,0,0,0,0,0,0,0,0,0,0,0,0,0,0,0,0,0,0,0,0,0,0,0,0,0,0,
0,0,0,593,594,595,596,0,0,0,0,0,0,0,0,0,0,0,0,0,0,0,0,0,0,0,0,0,0,0,0,0,0,0,0,0,0,0,0,0,0,0,0,0,0,0,0,0,0,0,
0,0,0,661,662,663,664,0,0,0,0,0,0,0,0,0,0,0,0,0,0,0,0,0,0,0,0,0,0,0,0,0,0,0,0,0,0,0,0,0,0,0,0,0,0,0,0,0,0,0,
525,526,527,528,0,0,0,0,0,0,0,0,0,0,0,0,0,0,0,0,0,0,0,0,0,0,0,0,0,0,0,0,0,0,0,0,0,0,0,0,0,0,0,0,0,0,0,0,0,0,
593,594,595,596,6245,6246,0,0,0,0,0,0,0,0,0,0,0,0,0,0,0,0,1961,1962,1963,1964,1965,1966,0,0,0,0,1961,1962,1963,1964,1965,1966,0,0,0,0,0,0,0,0,0,0,0,0,
661,662,663,664,6319,6320,0,0,0,0,0,0,0,0,0,0,0,0,0,0,0,0,2029,2030,2031,2032,2033,2034,0,0,0,0,2029,2030,2031,2032,2033,2034,0,0,0,0,0,0,0,0,0,0,0,0,
0,0,0,0,0,0,0,0,0,0,0,0,0,0,0,0,0,0,0,0,0,0,0,0,0,0,0,0,0,0,0,0,0,0,0,0,0,0,0,0,0,0,0,0,0,0,0,0,0,0,
0,0,0,0,0,0,0,0,0,0,0,0,0,0,0,0,0,0,0,0,0,0,0,0,0,0,0,0,0,0,0,0,0,0,0,0,0,0,0,0,0,0,0,0,0,0,0,0,0,0
</data>
 </layer>
 <layer id="5" name="圖塊層 3" width="50" height="25">
  <data encoding="csv">
0,0,0,0,0,0,0,0,0,0,0,0,0,0,0,0,0,0,0,0,0,0,0,0,0,0,0,0,0,0,0,0,0,0,0,0,0,0,0,0,0,0,0,0,0,0,0,0,0,0,
0,0,0,0,0,0,0,0,0,0,0,0,0,0,0,0,0,0,0,0,0,0,0,0,0,0,0,0,0,0,0,0,0,0,0,0,0,0,0,0,0,0,0,0,0,0,0,0,0,0,
0,0,0,0,0,0,0,0,0,0,0,0,0,0,0,0,0,0,0,0,0,0,0,0,0,0,0,0,0,0,0,0,0,0,0,0,0,0,0,0,0,0,0,0,0,0,0,0,0,0,
0,0,0,0,0,0,0,0,0,0,0,0,0,0,0,0,0,0,0,0,0,0,0,0,0,0,0,0,0,0,0,0,0,0,0,0,0,0,0,0,0,0,0,0,0,0,0,0,0,0,
0,0,0,0,0,0,0,0,0,0,0,0,0,0,0,0,0,0,0,0,0,0,0,0,0,0,0,0,0,0,0,0,0,0,0,0,0,0,0,0,0,0,0,0,0,0,0,0,0,0,
0,0,0,0,0,0,0,0,0,0,0,0,0,0,0,0,0,0,0,0,0,0,0,0,0,0,0,0,0,0,0,0,0,0,0,0,0,0,0,0,0,0,0,0,0,0,0,0,0,0,
0,0,0,1900,0,0,1903,0,0,0,0,0,0,0,0,0,0,0,0,0,0,0,0,0,0,0,0,0,0,0,0,0,0,0,0,0,0,0,0,0,0,0,0,0,0,0,0,0,0,0,
0,0,0,0,0,0,0,0,0,0,0,0,0,0,0,0,0,0,0,0,0,0,0,0,0,0,0,0,0,0,0,0,0,0,0,0,0,0,0,0,2233,2234,2097,2098,2099,2100,2101,2102,2369,2370,
0,0,0,0,0,0,0,0,0,0,0,0,0,0,0,0,0,0,0,0,0,0,0,0,0,0,0,0,0,0,0,0,0,0,0,0,0,0,0,0,2301,2302,2165,2166,2167,2168,2169,2170,2437,2438,
0,0,0,0,0,0,0,0,0,0,0,0,0,0,0,0,0,0,0,0,0,0,0,0,0,0,0,0,0,0,0,0,0,0,0,0,0,0,0,0,0,0,0,0,0,0,0,0,0,0,
0,0,0,0,0,0,0,0,0,0,0,0,0,0,0,0,0,0,0,0,0,0,0,0,0,0,0,0,0,0,0,0,0,0,0,0,0,0,0,0,0,0,0,0,0,0,0,0,0,0,
0,0,0,0,0,0,0,0,0,0,0,0,0,0,0,0,0,0,0,0,0,0,0,0,0,0,0,0,0,0,0,0,0,0,0,0,0,0,0,0,0,0,0,0,0,0,0,0,0,0,
0,0,0,0,0,0,0,0,0,0,0,0,0,0,0,0,0,0,0,0,0,0,0,0,0,0,0,0,0,0,0,0,0,0,0,0,0,0,0,0,0,0,0,0,0,0,0,0,0,0,
0,0,0,0,0,0,0,0,0,0,0,0,0,0,0,0,0,0,0,0,0,0,0,0,0,0,0,0,0,0,0,0,0,0,0,0,0,0,0,0,0,0,0,0,0,0,0,0,0,0,
0,0,0,0,0,0,0,0,0,0,0,0,0,0,0,0,0,0,0,0,0,0,0,0,0,0,0,0,0,0,0,0,0,0,0,0,0,0,0,0,0,0,0,0,0,0,0,0,0,0,
0,0,0,0,0,0,0,0,0,0,0,0,0,0,0,0,0,0,0,0,0,0,0,0,0,0,0,0,0,0,0,0,0,0,0,0,0,0,0,0,0,0,0,0,0,0,0,0,0,0,
0,0,0,0,0,0,0,0,0,0,0,0,0,0,0,0,0,0,0,0,0,0,0,0,0,0,0,0,0,0,0,0,0,0,0,0,0,0,0,0,0,0,0,0,0,0,0,0,0,0,
0,0,0,0,0,0,867,868,869,870,871,872,873,874,0,0,0,0,0,0,0,0,0,0,0,0,0,0,0,0,0,0,0,0,0,0,0,0,0,0,0,0,0,0,0,0,0,0,0,0,
0,0,0,0,0,0,935,936,937,938,939,940,941,942,0,0,0,0,0,0,0,0,0,0,0,0,0,0,0,0,0,0,0,0,0,0,0,0,0,0,0,0,0,0,0,0,0,0,0,0,
0,0,0,0,0,0,1003,1004,1005,1006,1007,1008,1009,1010,0,0,0,0,0,0,0,0,0,0,0,0,0,0,0,0,0,0,0,0,0,0,0,0,0,0,0,0,0,0,0,0,0,0,0,0,
0,0,0,0,1087,1088,1071,1072,1073,1074,1075,1076,1077,1078,0,0,0,0,0,0,0,0,0,0,0,0,0,0,0,0,0,0,0,0,0,0,0,0,0,0,0,0,0,0,0,0,0,0,0,0,
0,0,0,0,6245,6246,1139,1140,1141,1142,1143,1144,1145,1146,0,0,0,0,0,0,0,0,0,0,0,0,0,0,0,0,0,0,0,0,0,0,0,0,0,0,0,879,880,0,0,0,0,0,0,0,
0,0,0,0,6319,6320,1207,1208,1209,1210,1211,1212,1213,1214,0,0,0,0,0,0,0,0,0,0,0,0,0,0,0,0,0,0,0,0,0,0,0,0,0,0,0,947,948,0,0,0,0,0,0,0,
0,0,0,0,0,0,0,0,0,0,0,0,0,0,0,0,0,0,0,0,0,0,0,0,0,0,0,0,0,0,0,0,0,0,0,0,0,0,0,0,0,0,0,0,0,0,0,0,0,0,
0,0,0,0,0,0,0,0,0,0,0,0,0,0,0,0,0,0,0,0,0,0,0,0,0,0,0,0,0,0,0,0,0,0,0,0,0,0,0,0,0,0,0,0,0,0,0,0,0,0
</data>
 </layer>
 <layer id="7" name="圖塊層 4" width="50" height="25">
  <data encoding="csv">
0,0,0,0,0,0,0,0,0,0,0,0,0,0,0,0,0,0,0,0,0,0,0,0,0,0,0,0,0,0,0,0,0,0,0,0,0,0,0,0,0,0,0,0,0,0,0,0,0,0,
0,0,0,0,0,0,0,0,0,0,0,0,0,0,0,0,0,0,0,0,0,0,0,0,0,0,0,0,0,0,0,0,0,0,0,0,0,0,0,0,0,0,0,0,0,0,0,0,0,0,
0,0,0,0,0,0,0,0,0,0,0,0,0,0,0,0,0,0,0,0,0,0,0,0,0,0,0,0,0,0,0,0,0,0,0,0,0,0,0,0,0,0,0,0,0,0,0,0,0,0,
0,0,0,0,0,0,0,0,0,0,0,0,0,0,0,0,0,0,0,0,0,0,0,0,0,0,0,0,0,0,0,0,0,0,0,0,0,0,0,0,0,0,0,0,0,0,0,0,0,0,
0,0,0,0,0,0,0,0,0,0,0,0,0,0,0,0,0,0,0,0,0,0,0,0,0,0,0,0,0,0,0,0,0,0,0,0,0,0,0,0,0,0,0,0,0,0,0,0,0,0,
0,0,1557,1558,1559,1560,0,0,0,0,0,0,0,0,0,0,0,0,0,0,0,0,0,0,0,0,0,0,0,0,0,0,0,0,0,0,0,0,0,0,0,0,0,0,0,0,0,0,0,0,
2175,2176,1625,1626,1627,1628,0,0,1899,1900,1901,1902,1903,0,0,0,0,0,0,0,0,0,0,0,0,0,0,0,0,0,0,0,0,0,0,0,0,0,0,0,0,0,0,0,0,0,0,0,0,0,
2243,2244,1693,1694,1695,1696,0,0,1967,1968,1969,1970,1971,879,880,0,0,0,0,0,0,0,0,0,0,0,2235,2236,0,0,0,0,0,0,0,0,0,0,0,0,0,0,0,0,0,0,0,0,0,0,
2311,2312,1761,1762,1763,1764,0,0,2035,2036,2037,2038,2039,947,948,0,0,0,0,0,0,0,0,0,0,0,2303,2304,0,0,0,0,0,0,0,0,0,0,0,0,0,0,0,0,0,0,0,0,0,0,
0,0,0,0,0,0,0,0,2103,2104,2105,2106,2107,0,0,0,0,0,0,0,0,0,0,0,0,0,0,0,0,0,0,0,0,0,0,0,0,0,0,0,0,0,0,0,0,0,0,0,0,0,
0,0,0,0,0,0,0,0,0,0,0,0,0,0,0,0,0,0,0,0,0,0,0,0,0,0,0,0,0,0,0,0,0,0,0,0,0,0,0,0,0,0,0,0,0,0,0,0,0,0,
0,0,0,0,0,0,0,0,0,0,0,0,0,0,0,0,0,0,0,0,0,0,0,0,0,0,0,0,0,0,0,0,0,0,0,0,0,0,0,0,0,0,0,0,0,0,0,0,0,0,
0,0,0,0,0,0,0,0,0,0,0,0,0,0,0,0,0,0,0,0,0,0,0,0,0,0,0,0,0,0,0,0,0,0,0,0,0,0,0,0,0,0,0,0,0,0,0,0,0,0,
0,0,0,0,0,0,0,0,0,0,0,0,0,0,0,0,0,0,0,0,0,0,0,0,0,0,0,0,0,0,0,0,0,0,0,0,0,0,0,0,0,0,0,0,0,0,0,0,0,0,
0,0,0,0,0,0,0,0,0,0,0,0,0,0,0,0,0,0,0,0,0,0,0,0,0,0,0,0,0,0,0,0,0,0,0,0,0,0,0,0,0,0,0,0,0,0,0,0,0,0,
0,0,0,0,0,0,0,0,0,0,0,0,0,0,0,0,0,0,0,0,0,0,0,0,0,0,0,0,0,0,0,0,0,0,0,0,0,0,0,0,0,0,0,0,0,0,0,0,0,0,
0,0,0,0,0,0,0,0,0,0,0,0,0,0,0,0,0,0,0,0,0,0,0,0,0,0,0,0,0,0,0,0,0,0,0,0,0,0,0,0,0,0,0,0,0,0,0,0,0,0,
0,0,0,0,0,0,0,0,0,0,0,0,0,0,0,0,0,0,0,0,0,0,0,0,0,0,0,0,0,0,0,0,0,0,0,0,0,0,0,0,0,0,0,0,0,0,0,0,0,0,
0,0,0,0,0,0,0,0,0,0,0,0,0,0,0,0,0,0,0,0,0,0,0,0,0,0,0,0,0,0,0,0,0,0,0,0,0,0,0,0,0,0,0,0,0,0,0,0,0,0,
0,0,0,0,0,0,0,0,0,0,0,0,0,0,0,0,0,0,0,0,0,0,0,0,0,0,0,0,0,0,0,0,0,0,0,0,0,0,0,0,0,0,0,0,0,0,0,0,0,0,
0,0,0,0,0,0,0,0,0,0,1061,1062,1063,1064,1065,1066,1067,1068,1069,1070,0,0,0,0,0,0,0,0,0,0,0,0,0,0,0,0,0,0,0,0,0,0,0,0,0,0,0,0,0,0,
0,0,0,0,0,0,0,0,0,0,1129,1130,1131,1132,1133,1134,1135,1136,1137,1138,0,0,0,0,0,0,0,0,0,0,0,0,0,0,0,0,0,0,0,0,0,0,1697,1698,1699,1700,0,0,0,0,
0,0,0,0,0,0,0,0,0,0,1197,1198,1199,1200,1201,1202,1203,1204,1205,1206,0,0,0,0,0,0,0,0,0,0,0,0,0,0,0,0,0,0,0,0,0,0,1765,1766,1767,1768,0,0,0,0,
0,0,0,0,0,0,0,0,0,0,0,0,0,0,0,0,0,0,0,0,0,0,0,0,0,0,0,0,0,0,0,0,0,0,0,0,0,0,0,0,0,0,0,0,0,0,0,0,0,0,
0,0,0,0,0,0,0,0,0,0,0,0,0,0,0,0,0,0,0,0,0,0,0,0,0,0,0,0,0,0,0,0,0,0,0,0,0,0,0,0,0,0,0,0,0,0,0,0,0,0
</data>
 </layer>
 <objectgroup id="8" name="物件層 1">
  <object id="1" name="Floor" x="769.333" y="380"/>
  <object id="2" name="2F Floor" x="765.333" y="162.667"/>
  <object id="3" name="UP" x="29.3333" y="357.333"/>
  <object id="4" name="DOWN" x="230.667" y="132"/>
  <object id="5" name="Tavern Keeper" x="208" y="358.667"/>
  <object id="6" name="Village Head" x="329.333" y="357.333"/>
  <object id="7" name="Shopkeeper" x="477.333" y="356"/>
  <object id="8" name="Miner" x="665.333" y="354.667"/>
  <object id="9" name="Smith" x="534.667" y="136"/>
  <object id="10" name="Bard1" x="629.333" y="134.667"/>
  <object id="11" name="Bard2" x="662.667" y="136"/>
  <object id="12" name="Enter" x="768" y="354.667"/>
  <object id="13" name="Traveler" x="320.667" y="132.667"/>
  <object id="15" name="Chef" x="64.6667" y="136.667"/>
  <object id="16" name="Farmer" x="751.333" y="134"/>
  <object id="17" name="Woodcutter" x="430.667" y="134"/>
 </objectgroup>
</map>
